;Sliced by ideaMaker 3.3.0.2343, 2019-02-08 14:35:22 UTC+0530
;Dimension: 305.000 305.000 305.000 0.400 0.400
;Plate Shape: 0
;Extruder Offset #1: 25.000 0.000
;Filament Diameter #1: 1.750
;Filament Diameter #2: 1.750
;Filament Compensation #1: 94.00
;Filament Compensation #2: 94.00
;Filament Density #1: 1240.00
;Filament Density #2: 1240.00
;Model Gap: 0.000
M221 T0 S94.00
M140 S58.00
M104 T0 S213.00
M109 T0 S213.00
T0
M190 S58.00
G21
G90
M82
M107
G28 X0 Y0
G28 Z0
G1 Z15.0 F6000.0
G92 E0
G1 F140 E29
G1 X20 Y0 F140 E30
G92 E0
G1 F6000.0
M117 Printing...
M1001
;LAYER:0
;Z:0.300
;HEIGHT:0.300
M106 S0
G1 F1200 E-1.0000
G0 F6000 X56.633 Y155.211
G0 F1500 Z0.300
;TYPE:SKIRT
;WIDTH:0.400
G1 F1200 E0.0000
G1 F900 X57.061 Y155.068 E0.0225
G1 X57.444 Y154.993 E0.0420
G1 X58.220 Y154.891 E0.0810
G1 X58.671 Y154.864 E0.1036
G1 X59.054 Y154.891 E0.1227
G1 X59.831 Y154.993 E0.1618
G1 X60.274 Y155.084 E0.1844
G1 X60.644 Y155.212 E0.2039
G1 X61.367 Y155.513 E0.2430
G1 X61.771 Y155.716 E0.2655
G1 X62.089 Y155.931 E0.2847
G1 X62.710 Y156.409 E0.3238
G1 X63.048 Y156.710 E0.3464
G1 X63.298 Y156.999 E0.3654
G1 X63.766 Y157.610 E0.4038
G1 X64.015 Y157.988 E0.4264
G1 X64.177 Y158.319 E0.4448
G1 X64.486 Y159.056 E0.4847
G1 X64.631 Y159.484 E0.5072
G1 X64.713 Y159.920 E0.5294
G1 X64.825 Y160.879 E0.5775
G1 X111.453 Y160.879 E2.9038
G1 X111.565 Y159.920 E2.9520
G1 X111.649 Y159.476 E2.9745
G1 X111.786 Y159.069 E2.9959
G1 X112.086 Y158.344 E3.0351
G1 X112.288 Y157.940 E3.0576
G1 X112.500 Y157.625 E3.0766
G1 X112.976 Y157.002 E3.1157
G1 X113.276 Y156.663 E3.1383
G1 X113.569 Y156.408 E3.1576
G1 X114.191 Y155.930 E3.1968
G1 X114.568 Y155.680 E3.2194
G1 X114.911 Y155.513 E3.2384
G1 X115.634 Y155.212 E3.2775
G1 X116.063 Y155.068 E3.3000
G1 X116.447 Y154.993 E3.3196
G1 X117.224 Y154.891 E3.3586
G1 X117.676 Y154.864 E3.3812
G1 X118.074 Y154.893 E3.4011
G1 X118.865 Y155.001 E3.4410
G1 X119.308 Y155.094 E3.4636
G1 X119.661 Y155.218 E3.4822
G1 X120.370 Y155.513 E3.5205
G1 X120.775 Y155.715 E3.5431
G1 X121.093 Y155.931 E3.5623
G1 X121.714 Y156.409 E3.6014
G1 X122.052 Y156.710 E3.6240
G1 X122.303 Y157.000 E3.6431
G1 X122.780 Y157.623 E3.6823
G1 X123.029 Y158.000 E3.7048
G1 X123.196 Y158.345 E3.7239
G1 X123.490 Y159.056 E3.7623
G1 X123.633 Y159.485 E3.7849
G1 X123.704 Y159.847 E3.8033
G1 X123.837 Y160.879 E3.8552
G1 X134.141 Y160.879 E4.3692
G1 X135.042 Y160.953 E4.4144
G1 X135.656 Y161.075 E4.4456
G1 X136.219 Y161.246 E4.4749
G1 X136.802 Y161.488 E4.5064
G1 X137.320 Y161.766 E4.5358
G1 X137.839 Y162.114 E4.5669
G1 X138.294 Y162.488 E4.5963
G1 X138.739 Y162.934 E4.6278
G1 X139.112 Y163.390 E4.6571
G1 X139.456 Y163.906 E4.6881
G1 X139.722 Y164.403 E4.7162
G1 X139.957 Y164.965 E4.7466
G1 X140.139 Y165.552 E4.7773
G1 X140.267 Y166.185 E4.8095
G1 X140.341 Y167.086 E4.8546
G1 X140.341 Y169.843 E4.9921
G1 X140.309 Y170.294 E5.0147
G1 X140.214 Y170.736 E5.0372
G1 X140.057 Y171.161 E5.0598
G1 X139.842 Y171.559 E5.0824
G1 X139.573 Y171.922 E5.1050
G1 X139.256 Y172.244 E5.1275
G1 X138.896 Y172.519 E5.1501
G1 X138.502 Y172.739 E5.1726
G1 X138.080 Y172.902 E5.1952
G1 X137.639 Y173.004 E5.2178
G1 X137.141 Y173.043 E5.2427
G1 X127.341 Y173.043 E5.7316
G1 X127.341 Y190.202 E6.5877
G1 X137.141 Y190.202 E7.0766
G1 X137.592 Y190.234 E7.0992
G1 X138.034 Y190.329 E7.1217
G1 X138.459 Y190.486 E7.1443
G1 X138.857 Y190.701 E7.1669
G1 X139.220 Y190.970 E7.1894
G1 X139.542 Y191.287 E7.2120
G1 X139.817 Y191.647 E7.2346
G1 X140.037 Y192.041 E7.2571
G1 X140.200 Y192.463 E7.2797
G1 X140.302 Y192.904 E7.3022
G1 X140.341 Y193.402 E7.3272
G1 X140.341 Y196.159 E7.4647
G1 X140.325 Y196.474 E7.4804
G1 X140.267 Y197.061 E7.5099
G1 X140.145 Y197.674 E7.5410
G1 X139.974 Y198.238 E7.5705
G1 X139.736 Y198.814 E7.6015
G1 X139.459 Y199.334 E7.6309
G1 X139.112 Y199.856 E7.6622
G1 X138.739 Y200.312 E7.6916
G1 X138.294 Y200.758 E7.7230
G1 X137.839 Y201.132 E7.7524
G1 X137.316 Y201.482 E7.7838
G1 X136.798 Y201.759 E7.8131
G1 X136.224 Y201.997 E7.8441
G1 X135.661 Y202.169 E7.8735
G1 X135.036 Y202.294 E7.9053
G1 X134.141 Y202.366 E7.9501
G1 X123.841 Y202.366 E8.4640
G1 X123.841 Y205.754 E8.6330
G1 X124.790 Y205.865 E8.6807
G1 X125.235 Y205.949 E8.7032
G1 X125.645 Y206.088 E8.7248
G1 X126.369 Y206.389 E8.7640
G1 X126.774 Y206.592 E8.7866
G1 X127.093 Y206.808 E8.8058
G1 X127.714 Y207.286 E8.8449
G1 X128.052 Y207.587 E8.8675
G1 X128.303 Y207.877 E8.8866
G1 X128.780 Y208.500 E8.9257
G1 X129.029 Y208.877 E8.9483
G1 X129.197 Y209.225 E8.9676
G1 X129.496 Y209.950 E9.0067
G1 X129.639 Y210.379 E9.0292
G1 X129.710 Y210.750 E9.0481
G1 X129.813 Y211.528 E9.0872
G1 X129.841 Y211.979 E9.1098
G1 X129.813 Y212.367 E9.1292
G1 X129.710 Y213.146 E9.1684
G1 X129.620 Y213.590 E9.1910
G1 X129.496 Y213.947 E9.2099
G1 X129.197 Y214.672 E9.2490
G1 X128.996 Y215.077 E9.2715
G1 X128.780 Y215.397 E9.2908
G1 X128.303 Y216.020 E9.3299
G1 X128.003 Y216.359 E9.3525
G1 X127.714 Y216.611 E9.3717
G1 X127.093 Y217.089 E9.4108
G1 X126.716 Y217.339 E9.4333
G1 X126.366 Y217.509 E9.4527
G1 X125.642 Y217.809 E9.4918
G1 X125.213 Y217.952 E9.5144
G1 X124.793 Y218.031 E9.5357
G1 X123.841 Y218.144 E9.5835
G1 X123.842 Y221.530 E9.7525
G1 X134.141 Y221.530 E10.2663
G1 X135.042 Y221.604 E10.3114
G1 X135.656 Y221.726 E10.3426
G1 X136.219 Y221.897 E10.3720
G1 X136.802 Y222.139 E10.4035
G1 X137.320 Y222.417 E10.4328
G1 X137.839 Y222.765 E10.4640
G1 X138.294 Y223.139 E10.4934
G1 X138.737 Y223.583 E10.5247
G1 X139.095 Y224.020 E10.5528
G1 X139.434 Y224.524 E10.5831
G1 X139.726 Y225.063 E10.6137
G1 X139.974 Y225.659 E10.6459
G1 X140.145 Y226.223 E10.6753
G1 X140.267 Y226.836 E10.7065
G1 X140.341 Y227.738 E10.7517
G1 X140.341 Y230.495 E10.8892
G1 X140.309 Y230.946 E10.9118
G1 X140.214 Y231.388 E10.9343
G1 X140.057 Y231.813 E10.9569
G1 X139.842 Y232.211 E10.9795
G1 X139.573 Y232.574 E11.0020
G1 X139.256 Y232.896 E11.0246
G1 X138.896 Y233.171 E11.0472
G1 X138.502 Y233.391 E11.0697
G1 X138.080 Y233.554 E11.0923
G1 X137.639 Y233.656 E11.1149
G1 X137.141 Y233.695 E11.1398
G1 X127.341 Y233.695 E11.6287
G1 X127.341 Y250.853 E12.4847
G1 X137.141 Y250.853 E12.9736
G1 X137.592 Y250.885 E12.9962
G1 X138.034 Y250.980 E13.0188
G1 X138.459 Y251.137 E13.0414
G1 X138.857 Y251.352 E13.0639
G1 X139.220 Y251.621 E13.0865
G1 X139.542 Y251.938 E13.1090
G1 X139.817 Y252.298 E13.1316
G1 X140.037 Y252.692 E13.1541
G1 X140.200 Y253.114 E13.1767
G1 X140.302 Y253.555 E13.1993
G1 X140.341 Y254.053 E13.2242
G1 X140.341 Y256.810 E13.3617
G1 X140.267 Y257.712 E13.4069
G1 X140.145 Y258.325 E13.4381
G1 X139.974 Y258.889 E13.4675
G1 X139.736 Y259.465 E13.4986
G1 X139.459 Y259.985 E13.5280
G1 X139.112 Y260.507 E13.5592
G1 X138.739 Y260.963 E13.5886
G1 X138.294 Y261.409 E13.6201
G1 X137.839 Y261.783 E13.6494
G1 X137.320 Y262.131 E13.6806
G1 X136.802 Y262.409 E13.7100
G1 X136.219 Y262.651 E13.7414
G1 X135.656 Y262.822 E13.7708
G1 X135.042 Y262.944 E13.8020
G1 X134.141 Y263.018 E13.8471
G1 X123.837 Y263.018 E14.3612
G1 X123.710 Y264.023 E14.4117
G1 X123.620 Y264.467 E14.4343
G1 X123.496 Y264.824 E14.4532
G1 X123.197 Y265.549 E14.4923
G1 X122.996 Y265.954 E14.5149
G1 X122.780 Y266.274 E14.5341
G1 X122.303 Y266.897 E14.5733
G1 X122.003 Y267.236 E14.5959
G1 X121.714 Y267.488 E14.6150
G1 X121.093 Y267.966 E14.6541
G1 X120.716 Y268.216 E14.6767
G1 X120.366 Y268.386 E14.6961
G1 X119.642 Y268.686 E14.7352
G1 X119.213 Y268.829 E14.7577
G1 X118.838 Y268.902 E14.7768
G1 X118.062 Y269.005 E14.8159
G1 X117.611 Y269.033 E14.8384
G1 X117.220 Y269.005 E14.8580
G1 X116.443 Y268.902 E14.8971
G1 X116.000 Y268.811 E14.9196
G1 X115.638 Y268.686 E14.9387
G1 X114.915 Y268.386 E14.9778
G1 X114.510 Y268.183 E15.0004
G1 X114.191 Y267.967 E15.0196
G1 X113.569 Y267.489 E15.0587
G1 X113.231 Y267.189 E15.0813
G1 X112.976 Y266.895 E15.1007
G1 X112.500 Y266.272 E15.1398
G1 X112.252 Y265.894 E15.1624
G1 X112.087 Y265.555 E15.1812
G1 X111.792 Y264.844 E15.2196
G1 X111.649 Y264.415 E15.2421
G1 X111.577 Y264.046 E15.2609
G1 X111.445 Y263.018 E15.3126
G1 X64.837 Y263.018 E17.6379
G1 X64.710 Y264.023 E17.6884
G1 X64.620 Y264.467 E17.7110
G1 X64.496 Y264.824 E17.7299
G1 X64.197 Y265.549 E17.7690
G1 X63.996 Y265.954 E17.7916
G1 X63.780 Y266.274 E17.8108
G1 X63.303 Y266.897 E17.8500
G1 X63.003 Y267.236 E17.8726
G1 X62.714 Y267.488 E17.8917
G1 X62.093 Y267.966 E17.9308
G1 X61.716 Y268.216 E17.9534
G1 X61.366 Y268.386 E17.9728
G1 X60.642 Y268.686 E18.0119
G1 X60.213 Y268.829 E18.0344
G1 X59.838 Y268.902 E18.0535
G1 X59.062 Y269.005 E18.0925
G1 X58.611 Y269.033 E18.1151
G1 X58.220 Y269.005 E18.1346
G1 X57.443 Y268.902 E18.1737
G1 X57.000 Y268.811 E18.1963
G1 X56.638 Y268.686 E18.2154
G1 X55.915 Y268.386 E18.2545
G1 X55.510 Y268.183 E18.2771
G1 X55.191 Y267.967 E18.2963
G1 X54.569 Y267.489 E18.3354
G1 X54.231 Y267.189 E18.3580
G1 X53.976 Y266.895 E18.3774
G1 X53.500 Y266.272 E18.4165
G1 X53.252 Y265.894 E18.4391
G1 X53.087 Y265.555 E18.4579
G1 X52.792 Y264.844 E18.4963
G1 X52.649 Y264.415 E18.5188
G1 X52.577 Y264.046 E18.5376
G1 X52.445 Y263.018 E18.5893
G1 X42.141 Y263.018 E19.1034
G1 X41.826 Y263.002 E19.1191
G1 X41.240 Y262.944 E19.1485
G1 X40.623 Y262.821 E19.1799
G1 X40.061 Y262.650 E19.2092
G1 X39.482 Y262.410 E19.2404
G1 X38.963 Y262.132 E19.2698
G1 X38.442 Y261.783 E19.3011
G1 X37.987 Y261.409 E19.3305
G1 X37.527 Y260.944 E19.3631
G1 X37.142 Y260.466 E19.3937
G1 X36.809 Y259.962 E19.4239
G1 X36.544 Y259.464 E19.4520
G1 X36.307 Y258.889 E19.4831
G1 X36.136 Y258.325 E19.5125
G1 X36.013 Y257.706 E19.5439
G1 X35.941 Y256.810 E19.5888
G1 X35.941 Y254.053 E19.7263
G1 X35.973 Y253.602 E19.7489
G1 X36.068 Y253.160 E19.7715
G1 X36.225 Y252.735 E19.7941
G1 X36.440 Y252.337 E19.8166
G1 X36.709 Y251.974 E19.8392
G1 X37.026 Y251.652 E19.8617
G1 X37.386 Y251.377 E19.8843
G1 X37.780 Y251.157 E19.9068
G1 X38.202 Y250.994 E19.9294
G1 X38.643 Y250.892 E19.9520
G1 X39.141 Y250.853 E19.9769
G1 X48.941 Y250.853 E20.4658
G1 X48.941 Y233.695 E21.3218
G1 X39.141 Y233.695 E21.8108
G1 X38.690 Y233.663 E21.8333
G1 X38.248 Y233.568 E21.8559
G1 X37.823 Y233.411 E21.8785
G1 X37.425 Y233.196 E21.9010
G1 X37.062 Y232.927 E21.9236
G1 X36.740 Y232.610 E21.9461
G1 X36.465 Y232.250 E21.9687
G1 X36.245 Y231.856 E21.9912
G1 X36.082 Y231.434 E22.0138
G1 X35.980 Y230.993 E22.0364
G1 X35.941 Y230.495 E22.0613
G1 X35.941 Y227.738 E22.1989
G1 X36.013 Y226.842 E22.2437
G1 X36.136 Y226.223 E22.2752
G1 X36.307 Y225.659 E22.3046
G1 X36.545 Y225.083 E22.3357
G1 X36.822 Y224.563 E22.3651
G1 X37.169 Y224.041 E22.3964
G1 X37.542 Y223.585 E22.4257
G1 X37.987 Y223.139 E22.4572
G1 X38.442 Y222.765 E22.4866
G1 X38.963 Y222.416 E22.5178
G1 X39.482 Y222.138 E22.5472
G1 X40.061 Y221.898 E22.5785
G1 X40.623 Y221.727 E22.6078
G1 X41.240 Y221.604 E22.6392
G1 X42.141 Y221.530 E22.6843
G1 X52.441 Y221.530 E23.1982
G1 X52.441 Y218.144 E23.3671
G1 X51.488 Y218.031 E23.4150
G1 X51.044 Y217.946 E23.4375
G1 X50.638 Y217.809 E23.4589
G1 X49.915 Y217.509 E23.4979
G1 X49.510 Y217.306 E23.5206
G1 X49.191 Y217.090 E23.5398
G1 X48.569 Y216.612 E23.5789
G1 X48.231 Y216.312 E23.6015
G1 X47.976 Y216.018 E23.6209
G1 X47.500 Y215.395 E23.6600
G1 X47.252 Y215.017 E23.6825
G1 X47.087 Y214.678 E23.7014
G1 X46.792 Y213.967 E23.7398
G1 X46.649 Y213.538 E23.7623
G1 X46.577 Y213.169 E23.7811
G1 X46.470 Y212.376 E23.8210
G1 X46.441 Y211.925 E23.8435
G1 X46.468 Y211.532 E23.8632
G1 X46.570 Y210.754 E23.9023
G1 X46.660 Y210.311 E23.9249
G1 X46.786 Y209.946 E23.9442
G1 X47.086 Y209.221 E23.9833
G1 X47.288 Y208.817 E24.0058
G1 X47.500 Y208.502 E24.0248
G1 X47.976 Y207.879 E24.0639
G1 X48.276 Y207.540 E24.0865
G1 X48.569 Y207.285 E24.1059
G1 X49.191 Y206.807 E24.1450
G1 X49.568 Y206.557 E24.1676
G1 X49.911 Y206.390 E24.1866
G1 X50.634 Y206.089 E24.2257
G1 X51.063 Y205.945 E24.2482
G1 X51.491 Y205.865 E24.2700
G1 X52.441 Y205.753 E24.3177
G1 X52.441 Y202.366 E24.4867
G1 X42.141 Y202.366 E25.0005
G1 X41.245 Y202.294 E25.0454
G1 X40.619 Y202.169 E25.0772
G1 X40.057 Y201.997 E25.1066
G1 X39.486 Y201.760 E25.1374
G1 X38.967 Y201.483 E25.1667
G1 X38.442 Y201.132 E25.1983
G1 X37.987 Y200.758 E25.2276
G1 X37.542 Y200.312 E25.2591
G1 X37.169 Y199.856 E25.2885
G1 X36.822 Y199.334 E25.3197
G1 X36.545 Y198.814 E25.3491
G1 X36.307 Y198.238 E25.3802
G1 X36.136 Y197.674 E25.4096
G1 X36.013 Y197.055 E25.4411
G1 X35.956 Y196.468 E25.4705
G1 X35.941 Y196.159 E25.4860
G1 X35.941 Y193.402 E25.6235
G1 X35.973 Y192.951 E25.6461
G1 X36.068 Y192.509 E25.6686
G1 X36.225 Y192.084 E25.6912
G1 X36.440 Y191.686 E25.7138
G1 X36.709 Y191.323 E25.7363
G1 X37.026 Y191.001 E25.7589
G1 X37.386 Y190.726 E25.7815
G1 X37.780 Y190.506 E25.8040
G1 X38.202 Y190.343 E25.8266
G1 X38.643 Y190.241 E25.8492
G1 X39.141 Y190.202 E25.8741
G1 X48.941 Y190.202 E26.3630
G1 X48.941 Y173.043 E27.2191
G1 X39.141 Y173.043 E27.7080
G1 X38.690 Y173.011 E27.7305
G1 X38.248 Y172.916 E27.7531
G1 X37.823 Y172.759 E27.7757
G1 X37.425 Y172.544 E27.7983
G1 X37.062 Y172.275 E27.8208
G1 X36.740 Y171.958 E27.8434
G1 X36.465 Y171.598 E27.8660
G1 X36.245 Y171.204 E27.8885
G1 X36.082 Y170.782 E27.9110
G1 X35.980 Y170.341 E27.9336
G1 X35.941 Y169.843 E27.9585
G1 X35.941 Y167.086 E28.0961
G1 X36.013 Y166.190 E28.1409
G1 X36.135 Y165.573 E28.1723
G1 X36.306 Y165.008 E28.2018
G1 X36.546 Y164.428 E28.2331
G1 X36.823 Y163.909 E28.2624
G1 X37.169 Y163.390 E28.2936
G1 X37.542 Y162.934 E28.3229
G1 X37.987 Y162.488 E28.3544
G1 X38.442 Y162.114 E28.3838
G1 X38.963 Y161.765 E28.4150
G1 X39.482 Y161.487 E28.4444
G1 X40.061 Y161.247 E28.4757
G1 X40.623 Y161.076 E28.5050
G1 X41.240 Y160.953 E28.5364
G1 X42.141 Y160.879 E28.5815
G1 X52.449 Y160.879 E29.0958
G1 X52.561 Y159.920 E29.1439
G1 X52.645 Y159.476 E29.1665
G1 X52.782 Y159.069 E29.1879
G1 X53.082 Y158.344 E29.2270
G1 X53.284 Y157.940 E29.2496
G1 X53.499 Y157.622 E29.2687
G1 X53.967 Y157.011 E29.3071
G1 X54.266 Y156.672 E29.3297
G1 X54.542 Y156.431 E29.3480
G1 X55.172 Y155.941 E29.3878
G1 X55.548 Y155.689 E29.4104
G1 X55.909 Y155.512 E29.4304
G1 X56.633 Y155.211 E29.4695
G1 F1200 E28.4695
G0 F6000 X41.378 Y165.236
;TYPE:WALL-INNER
;WIDTH:0.400
G1 F1200 E29.4695
G1 F900 X41.752 Y165.122 E29.4890
G1 X42.191 Y165.079 E29.5110
G1 X52.688 Y165.079 E30.0347
G1 X53.419 Y165.006 E30.0714
G1 X54.171 Y164.778 E30.1106
G1 X54.865 Y164.407 E30.1499
G1 X55.470 Y163.906 E30.1890
G1 X55.966 Y163.299 E30.2282
G1 X56.336 Y162.607 E30.2673
G1 X56.376 Y162.477 E30.2741
G1 X56.554 Y162.444 E30.2831
G1 X56.873 Y162.855 E30.3091
G1 X57.394 Y163.253 E30.3418
G1 X58.003 Y163.503 E30.3746
G1 X58.654 Y163.581 E30.4073
G1 X59.298 Y163.493 E30.4398
G1 X59.901 Y163.241 E30.4724
G1 X60.413 Y162.847 E30.5046
G1 X60.719 Y162.447 E30.5297
G1 X60.898 Y162.479 E30.5388
G1 X60.937 Y162.607 E30.5455
G1 X61.308 Y163.300 E30.5847
G1 X61.804 Y163.908 E30.6238
G1 X62.410 Y164.407 E30.6630
G1 X63.104 Y164.778 E30.7023
G1 X63.856 Y165.006 E30.7415
G1 X64.587 Y165.079 E30.7781
G1 X111.691 Y165.079 E33.1281
G1 X112.422 Y165.006 E33.1648
G1 X113.174 Y164.778 E33.2040
G1 X113.867 Y164.407 E33.2432
G1 X114.474 Y163.908 E33.2824
G1 X114.970 Y163.299 E33.3216
G1 X115.340 Y162.607 E33.3608
G1 X115.380 Y162.477 E33.3675
G1 X115.558 Y162.444 E33.3766
G1 X115.877 Y162.856 E33.4026
G1 X116.398 Y163.252 E33.4352
G1 X117.005 Y163.501 E33.4680
G1 X117.654 Y163.581 E33.5006
G1 X118.302 Y163.494 E33.5332
G1 X118.906 Y163.239 E33.5659
G1 X119.416 Y162.847 E33.5980
G1 X119.723 Y162.446 E33.6232
G1 X119.902 Y162.479 E33.6323
G1 X119.941 Y162.607 E33.6389
G1 X120.311 Y163.299 E33.6781
G1 X120.807 Y163.908 E33.7173
G1 X121.393 Y164.390 E33.7551
G1 X122.105 Y164.777 E33.7956
G1 X122.858 Y165.006 E33.8348
G1 X123.591 Y165.079 E33.8716
G1 X134.091 Y165.079 E34.3954
G1 X134.529 Y165.122 E34.4174
G1 X134.904 Y165.236 E34.4369
G1 X135.247 Y165.421 E34.4564
G1 X135.551 Y165.670 E34.4760
G1 X135.800 Y165.974 E34.4956
G1 X135.974 Y166.301 E34.5141
G1 X136.098 Y166.700 E34.5349
G1 X136.141 Y167.136 E34.5568
G1 X136.141 Y168.843 E34.6419
G1 X132.149 Y168.843 E34.8411
G1 X132.067 Y168.676 E34.8504
G1 X132.209 Y168.494 E34.8619
G1 X132.388 Y168.055 E34.8856
G1 X132.451 Y167.588 E34.9091
G1 X132.388 Y167.120 E34.9326
G1 X132.207 Y166.678 E34.9565
G1 X131.904 Y166.295 E34.9808
