;Sliced by ideaMaker 3.3.0.2343, 2019-02-08 14:36:40 UTC+0530
;Dimension: 305.000 305.000 305.000 0.400 0.400
;Plate Shape: 0
;Extruder Offset #1: 25.000 0.000
;Filament Diameter #1: 1.750
;Filament Diameter #2: 1.750
;Filament Compensation #1: 94.00
;Filament Compensation #2: 94.00
;Filament Density #1: 1240.00
;Filament Density #2: 1240.00
;Model Gap: 0.000
M221 T0 S94.00
M140 S58.00
M104 T0 S213.00
M109 T0 S213.00
T0
M190 S58.00
G21
G90
M82
M107
G28 X0 Y0
G28 Z0
G1 Z15.0 F6000.0
G92 E0
G1 F140 E29
G1 X20 Y0 F140 E30
G92 E0
G1 F6000.0
M117 Printing...
M1001
;LAYER:0
;Z:0.300
;HEIGHT:0.300
M106 S0
G1 F1200 E-1.0000
G0 F6000 X59.423 Y144.622
G0 F1500 Z0.300
;TYPE:SKIRT
;WIDTH:0.400
G1 F1200 E0.0000
G1 F900 X59.852 Y144.477 E0.0226
G1 X60.230 Y144.402 E0.0418
G1 X61.005 Y144.297 E0.0808
G1 X61.457 Y144.268 E0.1034
G1 X61.835 Y144.293 E0.1223
G1 X62.612 Y144.391 E0.1614
G1 X63.056 Y144.479 E0.1840
G1 X63.430 Y144.607 E0.2037
G1 X64.154 Y144.905 E0.2428
G1 X64.559 Y145.106 E0.2653
G1 X64.888 Y145.328 E0.2851
G1 X65.526 Y145.819 E0.3253
G1 X65.864 Y146.120 E0.3479
G1 X66.115 Y146.410 E0.3670
G1 X66.585 Y147.024 E0.4056
G1 X66.834 Y147.402 E0.4282
G1 X67.001 Y147.747 E0.4473
G1 X67.301 Y148.473 E0.4865
G1 X67.444 Y148.902 E0.5090
G1 X67.517 Y149.279 E0.5282
G1 X67.619 Y150.057 E0.5673
G1 X67.640 Y150.382 E0.5836
G1 X114.252 Y150.383 E2.9091
G1 X114.273 Y150.057 E2.9254
G1 X114.375 Y149.279 E2.9645
G1 X114.465 Y148.836 E2.9871
G1 X114.591 Y148.473 E3.0062
G1 X114.891 Y147.747 E3.0454
G1 X115.092 Y147.342 E3.0680
G1 X115.309 Y147.022 E3.0873
G1 X115.786 Y146.400 E3.1264
G1 X116.086 Y146.061 E3.1490
G1 X116.373 Y145.811 E3.1680
G1 X116.985 Y145.340 E3.2065
G1 X117.362 Y145.090 E3.2291
G1 X117.700 Y144.925 E3.2478
G1 X118.423 Y144.622 E3.2869
G1 X118.852 Y144.477 E3.3095
G1 X119.230 Y144.402 E3.3288
G1 X120.005 Y144.297 E3.3678
G1 X120.457 Y144.268 E3.3904
G1 X120.835 Y144.293 E3.4093
G1 X121.612 Y144.391 E3.4483
G1 X122.056 Y144.479 E3.4709
G1 X122.430 Y144.607 E3.4906
G1 X123.154 Y144.905 E3.5297
G1 X123.559 Y145.106 E3.5523
G1 X123.888 Y145.328 E3.5721
G1 X124.526 Y145.819 E3.6122
G1 X124.864 Y146.120 E3.6348
G1 X125.115 Y146.410 E3.6539
G1 X125.585 Y147.024 E3.6925
G1 X125.834 Y147.402 E3.7151
G1 X126.001 Y147.747 E3.7342
G1 X126.301 Y148.473 E3.7734
G1 X126.444 Y148.902 E3.7960
G1 X126.517 Y149.279 E3.8151
G1 X126.619 Y150.057 E3.8543
G1 X126.646 Y150.473 E3.8751
G1 X126.647 Y156.546 E4.1781
G1 X133.446 Y156.546 E4.5173
G1 X133.865 Y156.574 E4.5382
G1 X135.418 Y156.779 E4.6164
G1 X135.861 Y156.869 E4.6389
G1 X136.226 Y156.996 E4.6582
G1 X137.677 Y157.598 E4.7366
G1 X138.081 Y157.801 E4.7591
G1 X138.397 Y158.015 E4.7782
G1 X139.640 Y158.971 E4.8564
G1 X139.978 Y159.272 E4.8790
G1 X140.231 Y159.564 E4.8983
G1 X141.184 Y160.810 E4.9765
G1 X141.432 Y161.188 E4.9991
G1 X141.599 Y161.530 E5.0181
G1 X142.199 Y162.980 E5.0964
G1 X142.342 Y163.410 E5.1190
G1 X142.415 Y163.788 E5.1382
G1 X142.619 Y165.345 E5.2165
G1 X142.646 Y165.797 E5.2391
G1 X142.619 Y166.177 E5.2581
G1 X142.415 Y167.734 E5.3364
G1 X142.325 Y168.177 E5.3590
G1 X142.199 Y168.541 E5.3782
G1 X141.599 Y169.992 E5.4566
G1 X141.397 Y170.396 E5.4791
G1 X141.184 Y170.713 E5.4981
G1 X140.231 Y171.959 E5.5764
G1 X139.931 Y172.298 E5.5990
G1 X139.639 Y172.553 E5.6183
G1 X138.396 Y173.508 E5.6965
G1 X138.018 Y173.757 E5.7191
G1 X137.673 Y173.925 E5.7383
G1 X136.226 Y174.526 E5.8164
G1 X135.798 Y174.670 E5.8390
G1 X135.418 Y174.743 E5.8583
G1 X133.865 Y174.948 E5.9364
G1 X133.446 Y174.976 E5.9574
G1 X126.646 Y174.976 E6.2966
G1 X126.646 Y195.156 E7.3034
G1 X127.626 Y195.270 E7.3526
G1 X128.069 Y195.360 E7.3752
G1 X128.430 Y195.484 E7.3942
G1 X129.154 Y195.782 E7.4333
G1 X129.559 Y195.983 E7.4558
G1 X129.885 Y196.203 E7.4755
G1 X130.523 Y196.693 E7.5156
G1 X130.861 Y196.993 E7.5381
G1 X131.117 Y197.288 E7.5576
G1 X131.587 Y197.903 E7.5962
G1 X131.835 Y198.281 E7.6188
G1 X132.001 Y198.624 E7.6378
G1 X132.301 Y199.350 E7.6770
G1 X132.444 Y199.779 E7.6996
G1 X132.517 Y200.156 E7.7187
G1 X132.619 Y200.934 E7.7579
G1 X132.646 Y201.385 E7.7804
G1 X132.619 Y201.766 E7.7995
G1 X132.517 Y202.544 E7.8386
G1 X132.427 Y202.987 E7.8612
G1 X132.301 Y203.350 E7.8803
G1 X132.001 Y204.076 E7.9195
G1 X131.800 Y204.481 E7.9421
G1 X131.587 Y204.797 E7.9611
G1 X131.111 Y205.420 E8.0002
G1 X130.811 Y205.759 E8.0228
G1 X130.518 Y206.014 E8.0422
G1 X129.905 Y206.485 E8.0807
G1 X129.527 Y206.735 E8.1034
G1 X129.193 Y206.899 E8.1219
G1 X128.471 Y207.202 E8.1610
G1 X128.043 Y207.347 E8.1835
G1 X127.662 Y207.422 E8.2029
G1 X126.886 Y207.527 E8.2420
G1 X126.646 Y207.543 E8.2540
G1 X126.646 Y227.724 E9.2608
G1 X133.446 Y227.724 E9.6001
G1 X133.865 Y227.752 E9.6210
G1 X135.418 Y227.957 E9.6992
G1 X135.861 Y228.047 E9.7217
G1 X136.226 Y228.174 E9.7410
G1 X137.673 Y228.775 E9.8192
G1 X138.078 Y228.977 E9.8417
G1 X138.397 Y229.193 E9.8610
G1 X139.640 Y230.149 E9.9392
G1 X139.978 Y230.450 E9.9618
G1 X140.230 Y230.741 E9.9810
G1 X141.183 Y231.986 E10.0592
G1 X141.432 Y232.364 E10.0818
G1 X141.599 Y232.708 E10.1009
G1 X142.199 Y234.159 E10.1792
G1 X142.342 Y234.588 E10.2018
G1 X142.415 Y234.966 E10.2210
G1 X142.619 Y236.523 E10.2993
G1 X142.646 Y236.975 E10.3219
G1 X142.619 Y237.355 E10.3409
G1 X142.415 Y238.912 E10.4192
G1 X142.325 Y239.355 E10.4418
G1 X142.199 Y239.720 E10.4611
G1 X141.599 Y241.170 E10.5394
G1 X141.397 Y241.574 E10.5619
G1 X141.184 Y241.890 E10.5809
G1 X140.231 Y243.136 E10.6592
G1 X139.931 Y243.475 E10.6817
G1 X139.640 Y243.729 E10.7010
G1 X138.397 Y244.685 E10.7792
G1 X138.020 Y244.934 E10.8018
G1 X137.673 Y245.103 E10.8210
G1 X136.226 Y245.704 E10.8992
G1 X135.798 Y245.848 E10.9217
G1 X135.418 Y245.921 E10.9410
G1 X133.865 Y246.126 E11.0192
G1 X133.446 Y246.154 E11.0402
G1 X126.646 Y246.155 E11.3794
G1 X126.646 Y252.227 E11.6823
G1 X126.619 Y252.643 E11.7031
G1 X126.517 Y253.421 E11.7423
G1 X126.427 Y253.864 E11.7648
G1 X126.301 Y254.227 E11.7840
G1 X126.001 Y254.953 E11.8232
G1 X125.800 Y255.358 E11.8458
G1 X125.585 Y255.676 E11.8649
G1 X125.109 Y256.298 E11.9040
G1 X124.810 Y256.637 E11.9265
G1 X124.518 Y256.890 E11.9458
G1 X123.905 Y257.361 E11.9844
G1 X123.527 Y257.611 E12.0070
G1 X123.193 Y257.775 E12.0255
G1 X122.471 Y258.078 E12.0646
G1 X122.043 Y258.223 E12.0872
G1 X121.662 Y258.298 E12.1065
G1 X120.886 Y258.403 E12.1456
G1 X120.435 Y258.432 E12.1681
G1 X120.056 Y258.407 E12.1871
G1 X119.280 Y258.309 E12.2261
G1 X118.836 Y258.221 E12.2487
G1 X118.464 Y258.094 E12.2683
G1 X117.739 Y257.796 E12.3074
G1 X117.334 Y257.595 E12.3300
G1 X117.002 Y257.370 E12.3500
G1 X116.365 Y256.879 E12.3901
G1 X116.028 Y256.579 E12.4126
G1 X115.780 Y256.293 E12.4315
G1 X115.309 Y255.679 E12.4701
G1 X115.060 Y255.301 E12.4927
G1 X114.891 Y254.953 E12.5120
G1 X114.591 Y254.227 E12.5512
G1 X114.448 Y253.798 E12.5737
G1 X114.375 Y253.421 E12.5929
G1 X114.273 Y252.643 E12.6321
G1 X114.252 Y252.318 E12.6483
G1 X67.640 Y252.317 E14.9738
G1 X67.619 Y252.643 E14.9901
G1 X67.517 Y253.421 E15.0292
G1 X67.427 Y253.864 E15.0518
G1 X67.301 Y254.227 E15.0709
G1 X67.001 Y254.953 E15.1101
G1 X66.800 Y255.358 E15.1327
G1 X66.585 Y255.676 E15.1518
G1 X66.109 Y256.298 E15.1909
G1 X65.810 Y256.637 E15.2135
G1 X65.518 Y256.890 E15.2327
G1 X64.905 Y257.361 E15.2713
G1 X64.527 Y257.611 E15.2939
G1 X64.193 Y257.775 E15.3125
G1 X63.471 Y258.078 E15.3516
G1 X63.043 Y258.223 E15.3741
G1 X62.662 Y258.298 E15.3935
G1 X61.886 Y258.403 E15.4325
G1 X61.435 Y258.432 E15.4551
G1 X61.056 Y258.407 E15.4740
G1 X60.280 Y258.309 E15.5131
G1 X59.836 Y258.221 E15.5356
G1 X59.464 Y258.094 E15.5553
G1 X58.739 Y257.796 E15.5944
G1 X58.334 Y257.595 E15.6169
G1 X58.011 Y257.377 E15.6364
G1 X57.389 Y256.901 E15.6754
G1 X57.050 Y256.602 E15.6980
G1 X56.802 Y256.317 E15.7168
G1 X56.316 Y255.688 E15.7565
G1 X56.065 Y255.311 E15.7791
G1 X55.891 Y254.953 E15.7989
G1 X55.591 Y254.227 E15.8381
G1 X55.448 Y253.798 E15.8607
G1 X55.375 Y253.421 E15.8799
G1 X55.273 Y252.643 E15.9190
G1 X55.246 Y252.227 E15.9398
G1 X55.246 Y246.154 E16.2428
G1 X48.446 Y246.154 E16.5820
G1 X48.027 Y246.126 E16.6030
G1 X46.474 Y245.921 E16.6811
G1 X46.031 Y245.831 E16.7037
G1 X45.666 Y245.704 E16.7230
G1 X44.219 Y245.103 E16.8011
G1 X43.814 Y244.901 E16.8237
G1 X43.494 Y244.684 E16.8430
G1 X42.252 Y243.728 E16.9212
G1 X41.914 Y243.427 E16.9438
G1 X41.663 Y243.137 E16.9629
G1 X40.709 Y241.891 E17.0412
G1 X40.460 Y241.514 E17.0638
G1 X40.292 Y241.168 E17.0829
G1 X39.693 Y239.718 E17.1612
G1 X39.551 Y239.289 E17.1838
G1 X39.478 Y238.914 E17.2028
G1 X39.273 Y237.357 E17.2812
G1 X39.246 Y236.905 E17.3038
G1 X39.273 Y236.521 E17.3230
G1 X39.478 Y234.964 E17.4013
G1 X39.569 Y234.521 E17.4239
G1 X39.693 Y234.161 E17.4429
G1 X40.292 Y232.710 E17.5212
G1 X40.494 Y232.305 E17.5438
G1 X40.710 Y231.985 E17.5630
G1 X41.664 Y230.740 E17.6413
G1 X41.964 Y230.401 E17.6639
G1 X42.252 Y230.150 E17.6829
G1 X43.494 Y229.194 E17.7611
G1 X43.871 Y228.944 E17.7837
G1 X44.219 Y228.775 E17.8030
G1 X45.666 Y228.174 E17.8812
G1 X46.094 Y228.030 E17.9037
G1 X46.474 Y227.957 E17.9230
G1 X48.027 Y227.752 E18.0011
G1 X48.446 Y227.724 E18.0221
G1 X55.246 Y227.724 E18.3613
G1 X55.246 Y207.545 E19.3681
G1 X54.262 Y207.429 E19.4175
G1 X53.819 Y207.339 E19.4401
G1 X53.464 Y207.217 E19.4588
G1 X52.739 Y206.919 E19.4979
G1 X52.334 Y206.718 E19.5205
G1 X52.005 Y206.495 E19.5403
G1 X51.368 Y206.005 E19.5804
G1 X51.030 Y205.705 E19.6029
G1 X50.778 Y205.415 E19.6221
G1 X50.307 Y204.800 E19.6607
G1 X50.059 Y204.422 E19.6833
G1 X49.891 Y204.076 E19.7025
G1 X49.591 Y203.350 E19.7417
G1 X49.448 Y202.921 E19.7642
G1 X49.375 Y202.544 E19.7834
G1 X49.273 Y201.766 E19.8225
G1 X49.246 Y201.315 E19.8451
G1 X49.273 Y200.934 E19.8641
G1 X49.375 Y200.156 E19.9033
G1 X49.465 Y199.713 E19.9258
G1 X49.591 Y199.350 E19.9450
G1 X49.891 Y198.624 E19.9842
G1 X50.092 Y198.219 E20.0068
G1 X50.307 Y197.901 E20.0259
G1 X50.784 Y197.278 E20.0651
G1 X51.084 Y196.939 E20.0876
G1 X51.373 Y196.687 E20.1068
G1 X51.985 Y196.216 E20.1453
G1 X52.362 Y195.966 E20.1679
G1 X52.700 Y195.801 E20.1866
G1 X53.423 Y195.498 E20.2257
G1 X53.852 Y195.353 E20.2483
G1 X54.234 Y195.277 E20.2678
G1 X55.009 Y195.173 E20.3068
G1 X55.246 Y195.157 E20.3186
G1 X55.246 Y174.976 E21.3255
G1 X48.446 Y174.976 E21.6647
G1 X48.027 Y174.948 E21.6857
G1 X46.474 Y174.743 E21.7638
G1 X46.031 Y174.653 E21.7864
G1 X45.666 Y174.526 E21.8056
G1 X44.219 Y173.925 E21.8838
G1 X43.814 Y173.723 E21.9064
G1 X43.495 Y173.507 E21.9256
G1 X42.253 Y172.552 E22.0038
G1 X41.915 Y172.251 E22.0264
G1 X41.663 Y171.960 E22.0456
G1 X40.709 Y170.714 E22.1239
G1 X40.460 Y170.337 E22.1464
G1 X40.292 Y169.990 E22.1656
G1 X39.693 Y168.539 E22.2440
G1 X39.551 Y168.110 E22.2665
G1 X39.478 Y167.736 E22.2855
G1 X39.273 Y166.179 E22.3639
G1 X39.246 Y165.727 E22.3864
G1 X39.273 Y165.343 E22.4057
G1 X39.478 Y163.786 E22.4840
G1 X39.569 Y163.343 E22.5066
G1 X39.693 Y162.982 E22.5256
G1 X40.292 Y161.532 E22.6039
G1 X40.494 Y161.127 E22.6265
G1 X40.709 Y160.809 E22.6456
G1 X41.663 Y159.563 E22.7239
G1 X41.963 Y159.224 E22.7465
G1 X42.252 Y158.972 E22.7656
G1 X43.494 Y158.016 E22.8438
G1 X43.871 Y157.766 E22.8664
G1 X44.219 Y157.597 E22.8857
G1 X45.666 Y156.996 E22.9638
G1 X46.094 Y156.852 E22.9864
G1 X46.474 Y156.779 E23.0057
G1 X48.027 Y156.574 E23.0838
G1 X48.446 Y156.546 E23.1048
G1 X55.246 Y156.545 E23.4440
G1 X55.246 Y150.473 E23.7470
G1 X55.273 Y150.057 E23.7678
G1 X55.375 Y149.279 E23.8069
G1 X55.465 Y148.836 E23.8295
G1 X55.591 Y148.473 E23.8486
G1 X55.891 Y147.747 E23.8878
G1 X56.092 Y147.342 E23.9104
G1 X56.309 Y147.022 E23.9297
G1 X56.786 Y146.400 E23.9688
G1 X57.086 Y146.061 E23.9914
G1 X57.373 Y145.811 E24.0104
G1 X57.985 Y145.340 E24.0489
G1 X58.362 Y145.090 E24.0715
G1 X58.700 Y144.925 E24.0902
G1 X59.423 Y144.622 E24.1293
G1 F1200 E23.1293
G0 F6000 X59.446 Y152.285
;TYPE:WALL-INNER
;WIDTH:0.400
G1 F1200 E24.1293
G1 F900 X59.612 Y152.203 E24.1386
G1 X60.184 Y152.643 E24.1746
G1 X60.787 Y152.896 E24.2072
G1 X61.435 Y152.984 E24.2398
G1 X62.084 Y152.902 E24.2725
G1 X62.696 Y152.653 E24.3054
G1 X63.279 Y152.201 E24.3422
G1 X63.446 Y152.283 E24.3515
G1 X63.446 Y154.582 E24.4662
G1 X118.446 Y154.583 E27.2102
G1 X118.446 Y152.285 E27.3248
G1 X118.612 Y152.203 E27.3340
G1 X119.184 Y152.643 E27.3700
G1 X119.787 Y152.896 E27.4027
G1 X120.435 Y152.984 E27.4353
G1 X121.085 Y152.902 E27.4680
G1 X121.693 Y152.653 E27.5008
G1 X122.280 Y152.205 E27.5376
G1 X122.446 Y152.287 E27.5468
G1 X122.447 Y157.810 E27.8224
G1 X122.500 Y158.327 E27.8483
G1 X122.668 Y158.892 E27.8777
G1 X122.948 Y159.414 E27.9073
G1 X123.321 Y159.869 E27.9366
G1 X123.775 Y160.243 E27.9660
G1 X124.296 Y160.522 E27.9955
G1 X124.861 Y160.693 E28.0249
G1 X125.396 Y160.746 E28.0517
G1 X133.381 Y160.746 E28.4501
G1 X134.737 Y160.926 E28.5183
G1 X135.941 Y161.425 E28.5834
G1 X136.974 Y162.220 E28.6484
G1 X137.767 Y163.257 E28.7135
G1 X138.267 Y164.464 E28.7787
G1 X138.438 Y165.761 E28.8440
G1 X138.267 Y167.058 E28.9092
G1 X137.767 Y168.266 E28.9745
G1 X136.974 Y169.303 E29.0396
G1 X135.941 Y170.097 E29.1046
G1 X134.737 Y170.596 E29.1696
G1 X133.381 Y170.776 E29.2379
G1 X125.396 Y170.776 E29.6362
G1 X124.859 Y170.830 E29.6632
G1 X124.296 Y171.001 E29.6925
G1 X123.775 Y171.279 E29.7220
G1 X123.321 Y171.654 E29.7514
G1 X122.948 Y172.108 E29.7807
G1 X122.668 Y172.631 E29.8103
G1 X122.500 Y173.195 E29.8396
G1 X122.446 Y173.731 E29.8665
G1 X122.446 Y199.343 E31.1443
G1 X124.643 Y199.343 E31.2539
G1 X124.725 Y199.510 E31.2632
G1 X124.274 Y200.092 E31.2999
G1 X124.022 Y200.701 E31.3328
G1 X123.938 Y201.350 E31.3655
G1 X124.022 Y201.999 E31.3981
G1 X124.273 Y202.607 E31.4309
G1 X124.722 Y203.191 E31.4677
G1 X124.641 Y203.357 E31.4769
G1 X122.446 Y203.358 E31.5864
G1 X122.446 Y228.969 E32.8641
G1 X122.500 Y229.505 E32.8910
G1 X122.670 Y230.073 E32.9206
G1 X122.962 Y230.610 E32.9511
G1 X123.322 Y231.047 E32.9793
G1 X123.775 Y231.421 E33.0086
G1 X124.296 Y231.699 E33.0381
G1 X124.859 Y231.870 E33.0675
G1 X125.396 Y231.924 E33.0944
G1 X133.381 Y231.924 E33.4928
G1 X134.737 Y232.104 E33.5610
G1 X135.941 Y232.603 E33.6260
G1 X136.974 Y233.398 E33.6911
G1 X137.767 Y234.434 E33.7561
G1 X138.267 Y235.642 E33.8214
G1 X138.438 Y236.939 E33.8866
G1 X138.267 Y238.236 E33.9519
G1 X137.767 Y239.443 E34.0171
G1 X136.974 Y240.480 E34.0822
G1 X135.941 Y241.275 E34.1472
G1 X134.737 Y241.774 E34.2123
G1 X133.381 Y241.954 E34.2805
G1 X125.377 Y241.955 E34.6798
G1 X124.859 Y242.007 E34.7058
G1 X124.296 Y242.178 E34.7352
G1 X123.775 Y242.457 E34.7646
G1 X123.321 Y242.831 E34.7940
G1 X122.948 Y243.286 E34.8233
G1 X122.668 Y243.808 E34.8529
G1 X122.500 Y244.373 E34.8823
G1 X122.446 Y244.909 E34.9092
G1 X122.446 Y250.414 E35.1838
G1 X122.280 Y250.496 E35.1931
G1 X121.707 Y250.057 E35.2291
G1 X121.106 Y249.804 E35.2616
G1 X120.457 Y249.716 E35.2943
G1 X119.807 Y249.798 E35.3270
G1 X119.198 Y250.047 E35.3598
G1 X118.612 Y250.497 E35.3967
G1 X118.446 Y250.415 E35.4059
G1 X118.446 Y248.118 E35.5205
G1 X63.446 Y248.117 E38.2645
G1 X63.446 Y250.414 E38.3791
G1 X63.280 Y250.496 E38.3883
G1 X62.707 Y250.057 E38.4243
G1 X62.106 Y249.804 E38.4568
G1 X61.457 Y249.716 E38.4895
G1 X60.807 Y249.798 E38.5222
G1 X60.198 Y250.047 E38.5550
G1 X59.612 Y250.497 E38.5919
G1 X59.446 Y250.415 E38.6011
G1 X59.446 Y244.910 E38.8758
G1 X59.393 Y244.373 E38.9027
G1 X59.222 Y243.806 E38.9322
G1 X58.944 Y243.287 E38.9616
G1 X58.571 Y242.831 E38.9910
G1 X58.117 Y242.457 E39.0203
G1 X57.597 Y242.178 E39.0498
G1 X57.031 Y242.007 E39.0793
G1 X56.496 Y241.954 E39.1061
G1 X48.511 Y241.954 E39.5045
G1 X47.155 Y241.774 E39.5727
G1 X45.951 Y241.275 E39.6377
G1 X44.919 Y240.480 E39.7027
G1 X44.125 Y239.443 E39.7679
G1 X43.626 Y238.236 E39.8331
G1 X43.454 Y236.939 E39.8983
G1 X43.626 Y235.642 E39.9636
G1 X44.125 Y234.434 E40.0288
G1 X44.919 Y233.398 E40.0939
G1 X45.951 Y232.603 E40.1589
G1 X47.155 Y232.104 E40.2239
G1 X48.511 Y231.924 E40.2922
G1 X56.499 Y231.924 E40.6907
G1 X57.054 Y231.865 E40.7186
G1 X57.597 Y231.699 E40.7469
G1 X58.117 Y231.421 E40.7763
G1 X58.572 Y231.047 E40.8057
G1 X58.944 Y230.590 E40.8351
G1 X59.222 Y230.071 E40.8645
G1 X59.393 Y229.505 E40.8940
G1 X59.446 Y228.968 E40.9209
