;Sliced by ideaMaker 3.3.0.2343, 2019-02-16 11:05:16 UTC+0530
;Dimension: 305.000 305.000 305.000 0.400 0.400
;Plate Shape: 0
;Extruder Offset #1: 25.000 0.000
;Filament Diameter #1: 1.750
;Filament Diameter #2: 1.750
;Filament Compensation #1: 94.00
;Filament Compensation #2: 94.00
;Filament Density #1: 1240.00
;Filament Density #2: 1240.00
;Model Gap: 0.000
M221 T0 S94.00
M140 S58.00
M104 T0 S213.00
M109 T0 S213.00
T0
M190 S58.00
G21
G90
M82
M107
G28 X0 Y0
G28 Z0
G1 Z15.0 F6000.0
G92 E0
G1 F140 E29
G1 X20 Y0 F140 E30
G92 E0
G1 F6000.0
M117 Printing...
M1001
;LAYER:0
;Z:0.300
;HEIGHT:0.300
M106 S0
G1 F1200 E-1.0000
G0 F6000 X108.733 Y149.483
G0 F1500 Z0.300
;TYPE:SKIRT
;WIDTH:0.400
G1 F1200 E0.0000
G1 F900 X109.015 Y149.278 E0.0174
G1 X109.613 Y148.914 E0.0523
G1 X110.122 Y148.669 E0.0805
G1 X110.822 Y148.417 E0.1176
G1 X111.529 Y148.246 E0.1539
G1 X112.179 Y148.179 E0.1865
G1 X141.122 Y148.179 E1.6305
G1 X141.762 Y148.244 E1.6626
G1 X142.415 Y148.395 E1.6960
G1 X142.747 Y148.500 E1.7134
G1 X143.076 Y148.624 E1.7309
G1 X143.688 Y148.913 E1.7647
G1 X143.991 Y149.086 E1.7821
G1 X144.568 Y149.482 E1.8170
G1 X145.085 Y149.924 E1.8509
G1 X145.328 Y150.167 E1.8681
G1 X145.774 Y150.692 E1.9025
G1 X146.161 Y151.259 E1.9367
G1 X146.334 Y151.562 E1.9541
G1 X146.624 Y152.179 E1.9881
G1 X146.854 Y152.843 E2.0232
G1 X146.938 Y153.172 E2.0401
G1 X147.004 Y153.500 E2.0568
G1 X147.067 Y154.131 E2.0885
G1 X147.067 Y188.676 E3.8119
G1 X147.040 Y189.089 E3.8326
G1 X146.993 Y189.450 E3.8507
G1 X146.920 Y189.830 E3.8700
G1 X146.697 Y190.702 E3.9149
G1 X146.554 Y191.131 E3.9375
G1 X146.353 Y191.536 E3.9601
G1 X146.087 Y191.919 E3.9833
G1 X145.840 Y192.225 E4.0029
G1 X145.532 Y192.556 E4.0255
G1 X145.180 Y192.840 E4.0481
G1 X144.792 Y193.072 E4.0706
G1 X144.374 Y193.247 E4.0932
G1 X143.937 Y193.361 E4.1158
G1 X143.351 Y193.415 E4.1451
G1 X140.151 Y193.416 E4.3048
G1 X139.700 Y193.384 E4.3273
G1 X139.258 Y193.289 E4.3499
G1 X138.833 Y193.133 E4.3725
G1 X138.435 Y192.918 E4.3950
G1 X138.072 Y192.649 E4.4176
G1 X137.749 Y192.332 E4.4401
G1 X137.475 Y191.972 E4.4627
G1 X137.254 Y191.578 E4.4853
G1 X137.091 Y191.156 E4.5078
G1 X136.989 Y190.715 E4.5304
G1 X136.950 Y190.216 E4.5554
G1 X136.950 Y175.409 E5.2941
G1 X136.872 Y174.915 E5.3191
G1 X136.769 Y174.712 E5.3304
G1 X136.585 Y174.526 E5.3435
G1 X136.385 Y174.424 E5.3547
G1 X135.895 Y174.346 E5.3794
G1 X117.305 Y174.346 E6.3069
G1 X116.815 Y174.424 E6.3316
G1 X116.608 Y174.529 E6.3432
G1 X116.435 Y174.702 E6.3554
G1 X116.328 Y174.913 E6.3672
G1 X116.250 Y175.409 E6.3923
G1 X116.250 Y190.216 E7.1310
G1 X116.218 Y190.667 E7.1536
G1 X116.123 Y191.109 E7.1761
G1 X115.966 Y191.534 E7.1987
G1 X115.751 Y191.932 E7.2213
G1 X115.482 Y192.295 E7.2438
G1 X115.165 Y192.617 E7.2664
G1 X114.805 Y192.892 E7.2890
G1 X114.411 Y193.112 E7.3115
G1 X113.989 Y193.275 E7.3340
G1 X113.548 Y193.377 E7.3566
G1 X113.050 Y193.416 E7.3816
G1 X109.850 Y193.416 E7.5412
G1 X109.399 Y193.384 E7.5638
G1 X108.957 Y193.289 E7.5863
G1 X108.532 Y193.132 E7.6089
G1 X108.134 Y192.917 E7.6315
G1 X107.771 Y192.648 E7.6540
G1 X107.360 Y192.226 E7.6834
G1 X107.113 Y191.920 E7.7030
G1 X106.854 Y191.549 E7.7256
G1 X106.651 Y191.145 E7.7482
G1 X106.503 Y190.703 E7.7714
G1 X106.280 Y189.831 E7.8163
G1 X106.207 Y189.451 E7.8356
G1 X106.160 Y189.090 E7.8538
G1 X106.133 Y188.677 E7.8744
G1 X106.133 Y168.840 E8.8641
G1 X106.165 Y168.389 E8.8867
G1 X106.233 Y168.073 E8.9028
G1 X106.233 Y154.132 E9.5983
G1 X106.298 Y153.492 E9.6304
G1 X106.365 Y153.164 E9.6471
G1 X106.446 Y152.849 E9.6633
G1 X106.619 Y152.338 E9.6903
G1 X106.789 Y151.927 E9.7124
G1 X106.967 Y151.563 E9.7327
G1 X107.140 Y151.260 E9.7501
G1 X107.527 Y150.693 E9.7843
G1 X107.905 Y150.244 E9.8136
G1 X108.422 Y149.741 E9.8496
G1 X108.733 Y149.483 E9.8697
G1 F1200 E8.8697
G0 F6000 X98.524 Y153.579
G1 F1200 E9.8697
G1 F900 X98.754 Y154.243 E9.9048
G1 X98.838 Y154.572 E9.9217
G1 X98.904 Y154.900 E9.9384
G1 X98.967 Y155.531 E9.9701
G1 X98.967 Y190.076 E11.6935
G1 X98.940 Y190.489 E11.7142
G1 X98.893 Y190.850 E11.7323
G1 X98.820 Y191.230 E11.7516
G1 X98.597 Y192.102 E11.7965
G1 X98.454 Y192.531 E11.8191
G1 X98.253 Y192.936 E11.8417
G1 X97.987 Y193.319 E11.8649
G1 X97.740 Y193.625 E11.8845
G1 X97.432 Y193.956 E11.9071
G1 X97.080 Y194.240 E11.9297
G1 X96.692 Y194.472 E11.9522
G1 X96.274 Y194.647 E11.9748
G1 X95.837 Y194.761 E11.9974
G1 X95.251 Y194.815 E12.0267
G1 X92.051 Y194.816 E12.1864
G1 X91.600 Y194.784 E12.2089
G1 X91.158 Y194.689 E12.2315
G1 X90.733 Y194.533 E12.2541
G1 X90.335 Y194.318 E12.2766
G1 X89.972 Y194.049 E12.2992
G1 X89.649 Y193.732 E12.3218
G1 X89.375 Y193.372 E12.3443
G1 X89.154 Y192.978 E12.3669
G1 X88.991 Y192.556 E12.3894
G1 X88.889 Y192.115 E12.4120
G1 X88.850 Y191.616 E12.4370
G1 X88.850 Y176.809 E13.1757
G1 X88.772 Y176.315 E13.2007
G1 X88.669 Y176.112 E13.2120
G1 X88.485 Y175.926 E13.2251
G1 X88.285 Y175.824 E13.2363
G1 X87.795 Y175.746 E13.2610
G1 X69.205 Y175.746 E14.1885
G1 X68.715 Y175.824 E14.2132
G1 X68.508 Y175.929 E14.2248
G1 X68.335 Y176.102 E14.2370
G1 X68.228 Y176.313 E14.2488
G1 X68.150 Y176.809 E14.2739
G1 X68.150 Y191.616 E15.0126
G1 X68.118 Y192.067 E15.0352
G1 X68.023 Y192.509 E15.0577
G1 X67.866 Y192.934 E15.0803
G1 X67.651 Y193.332 E15.1029
G1 X67.382 Y193.695 E15.1254
G1 X67.065 Y194.017 E15.1480
G1 X66.705 Y194.292 E15.1706
G1 X66.311 Y194.512 E15.1931
G1 X65.889 Y194.675 E15.2157
G1 X65.448 Y194.777 E15.2382
G1 X64.950 Y194.816 E15.2632
G1 X61.750 Y194.816 E15.4228
G1 X61.299 Y194.784 E15.4454
G1 X60.857 Y194.689 E15.4679
G1 X60.432 Y194.532 E15.4905
G1 X60.034 Y194.317 E15.5131
G1 X59.671 Y194.048 E15.5356
G1 X59.260 Y193.626 E15.5650
G1 X59.013 Y193.320 E15.5846
G1 X58.754 Y192.949 E15.6072
G1 X58.551 Y192.545 E15.6298
G1 X58.403 Y192.103 E15.6530
G1 X58.180 Y191.231 E15.6979
G1 X58.107 Y190.851 E15.7172
G1 X58.060 Y190.490 E15.7354
G1 X58.033 Y190.077 E15.7560
G1 X58.033 Y170.240 E16.7457
G1 X58.065 Y169.789 E16.7683
G1 X58.133 Y169.473 E16.7844
G1 X58.133 Y155.532 E17.4799
G1 X58.198 Y154.892 E17.5120
G1 X58.265 Y154.564 E17.5287
G1 X58.346 Y154.249 E17.5449
G1 X58.519 Y153.738 E17.5719
G1 X58.689 Y153.327 E17.5940
G1 X58.867 Y152.963 E17.6143
G1 X59.040 Y152.660 E17.6317
G1 X59.427 Y152.093 E17.6659
G1 X59.805 Y151.644 E17.6952
G1 X60.322 Y151.141 E17.7312
G1 X60.633 Y150.883 E17.7513
G1 X60.915 Y150.678 E17.7687
G1 X61.513 Y150.314 E17.8037
G1 X62.022 Y150.069 E17.8319
G1 X62.722 Y149.817 E17.8690
G1 X63.429 Y149.646 E17.9053
G1 X64.079 Y149.579 E17.9379
G1 X93.022 Y149.579 E19.3818
G1 X93.662 Y149.644 E19.4139
G1 X94.315 Y149.795 E19.4474
G1 X94.647 Y149.900 E19.4647
G1 X94.976 Y150.024 E19.4823
G1 X95.588 Y150.313 E19.5160
G1 X95.891 Y150.486 E19.5334
G1 X96.468 Y150.882 E19.5684
G1 X96.985 Y151.324 E19.6023
G1 X97.228 Y151.567 E19.6194
G1 X97.674 Y152.092 E19.6538
G1 X98.061 Y152.659 E19.6881
G1 X98.234 Y152.962 E19.7055
G1 X98.524 Y153.579 E19.7395
G1 F1200 E18.7395
G0 F6000 X63.707 Y153.917
;TYPE:WALL-INNER
;WIDTH:0.400
G1 F1200 E19.7395
G1 F900 X64.014 Y153.814 E19.7556
G1 X64.182 Y153.779 E19.7642
G1 X92.920 Y153.779 E21.1979
G1 X93.099 Y153.816 E21.2071
G1 X93.328 Y153.888 E21.2190
G1 X93.760 Y154.105 E21.2432
G1 X93.956 Y154.248 E21.2553
G1 X94.135 Y154.410 E21.2673
G1 X94.298 Y154.591 E21.2795
G1 X94.440 Y154.788 E21.2916
G1 X94.560 Y154.999 E21.3037
G1 X94.659 Y155.222 E21.3159
G1 X94.767 Y155.631 E21.3370
G1 X94.767 Y162.041 E21.6568
G1 X94.527 Y162.089 E21.6690
G1 X94.296 Y161.531 E21.6991
G1 X93.976 Y161.104 E21.7257
G1 X93.556 Y160.779 E21.7522
G1 X93.069 Y160.577 E21.7785
G1 X92.550 Y160.510 E21.8046
G1 X92.031 Y160.577 E21.8307
G1 X91.544 Y160.779 E21.8570
G1 X91.467 Y160.838 E21.8619
G1 X91.300 Y160.757 E21.8711
G1 X91.300 Y155.004 E22.1582
G1 X65.800 Y155.004 E23.4304
G1 X65.800 Y160.757 E23.7174
G1 X65.633 Y160.838 E23.7266
G1 X65.556 Y160.779 E23.7315
G1 X65.069 Y160.577 E23.7578
G1 X64.550 Y160.510 E23.7839
G1 X64.031 Y160.577 E23.8100
G1 X63.544 Y160.779 E23.8363
G1 X63.128 Y161.100 E23.8625
G1 X62.811 Y161.514 E23.8885
G1 X62.573 Y162.089 E23.9196
G1 X62.333 Y162.041 E23.9318
G1 X62.333 Y155.643 E24.2510
G1 X62.422 Y155.291 E24.2691
G1 X62.546 Y154.990 E24.2853
G1 X62.796 Y154.600 E24.3084
G1 X63.159 Y154.239 E24.3340
G1 X63.334 Y154.112 E24.3448
G1 X63.707 Y153.917 E24.3658
G0 F6000 X63.550 Y153.548
G1 F900 X63.909 Y153.427 E24.3847
G1 X64.141 Y153.379 E24.3965
G1 X92.961 Y153.379 E25.8343
G1 X93.200 Y153.428 E25.8465
G1 X93.469 Y153.513 E25.8606
G1 X93.730 Y153.628 E25.8748
G1 X93.977 Y153.769 E25.8890
G1 X94.208 Y153.937 E25.9032
G1 X94.419 Y154.127 E25.9174
G1 X94.610 Y154.340 E25.9317
G1 X94.777 Y154.571 E25.9459
G1 X94.918 Y154.819 E25.9601
G1 X95.034 Y155.081 E25.9744
G1 X95.119 Y155.353 E25.9886
G1 X95.167 Y155.591 E26.0008
G1 X95.167 Y190.037 E27.7193
G1 X95.130 Y190.323 E27.7337
G1 X94.953 Y191.015 E27.7693
G1 X92.650 Y191.016 E27.8842
G1 X92.650 Y176.509 E28.6080
G1 X92.432 Y175.129 E28.6777
G1 X91.788 Y173.863 E28.7485
G1 X90.760 Y172.821 E28.8215
G1 X89.474 Y172.164 E28.8936
G1 X88.097 Y171.946 E28.9632
G1 X68.903 Y171.946 E29.9207
G1 X67.526 Y172.164 E29.9903
G1 X66.242 Y172.820 E30.0622
G1 X65.222 Y173.842 E30.1343
G1 X64.568 Y175.129 E30.2063
G1 X64.350 Y176.509 E30.2760
G1 X64.350 Y191.016 E30.9998
G1 X62.047 Y191.016 E31.1146
G1 X61.870 Y190.324 E31.1503
G1 X61.833 Y190.038 E31.1647
G1 X61.833 Y170.633 E32.1328
G1 X62.388 Y170.541 E32.1609
G1 X62.298 Y169.441 E32.2159
G1 X61.933 Y169.440 E32.2341
G1 X61.933 Y155.593 E32.9250
G1 X62.041 Y155.165 E32.9470
G1 X62.186 Y154.814 E32.9659
G1 X62.324 Y154.572 E32.9798
G1 X62.491 Y154.340 E32.9941
G1 X62.899 Y153.934 E33.0228
G1 X63.123 Y153.771 E33.0366
G1 X63.550 Y153.548 E33.0607
G1 F1200 E32.0607
G0 F6000 X63.403 Y153.176
;TYPE:WALL-OUTER
;WIDTH:0.400
G1 F1200 E33.0607
G1 F900 X63.804 Y153.040 E33.0818
G1 X64.100 Y152.979 E33.0969
G1 X93.002 Y152.979 E34.5388
G1 X93.300 Y153.040 E34.5540
G1 X93.611 Y153.138 E34.5702
G1 X93.911 Y153.271 E34.5866
G1 X94.195 Y153.433 E34.6029
G1 X94.460 Y153.626 E34.6193
G1 X94.703 Y153.844 E34.6356
G1 X94.922 Y154.089 E34.6520
G1 X95.114 Y154.354 E34.6683
G1 X95.276 Y154.639 E34.6846
G1 X95.409 Y154.940 E34.7011
G1 X95.507 Y155.253 E34.7174
G1 X95.567 Y155.551 E34.7326
G1 X95.567 Y190.063 E36.4544
G1 X95.523 Y190.399 E36.4713
G1 X95.314 Y191.217 E36.5134
G1 X95.154 Y191.415 E36.5261
G1 X92.250 Y191.416 E36.6710
G1 X92.250 Y176.540 E37.4132
G1 X92.047 Y175.254 E37.4781
G1 X91.460 Y174.100 E37.5427
G1 X90.521 Y173.148 E37.6094
G1 X89.349 Y172.549 E37.6751
G1 X88.066 Y172.346 E37.7399
G1 X68.934 Y172.346 E38.6944
G1 X67.651 Y172.549 E38.7592
G1 X66.480 Y173.147 E38.8248
G1 X65.550 Y174.080 E38.8905
G1 X64.953 Y175.254 E38.9562
G1 X64.750 Y176.540 E39.0212
G1 X64.750 Y191.416 E39.7634
G1 X61.846 Y191.416 E39.9082
G1 X61.686 Y191.218 E39.9209
G1 X61.477 Y190.400 E39.9631
G1 X61.433 Y190.064 E39.9800
G1 X61.433 Y170.339 E40.9640
G1 X61.562 Y170.273 E40.9713
G1 X61.959 Y170.207 E40.9914
G1 X61.929 Y169.840 E41.0097
G1 X61.533 Y169.839 E41.0295
G1 X61.533 Y155.552 E41.7423
G1 X61.594 Y155.254 E41.7574
G1 X61.664 Y155.029 E41.7692
G1 X61.826 Y154.638 E41.7903
G1 X61.987 Y154.355 E41.8066
G1 X62.179 Y154.089 E41.8229
G1 X62.334 Y153.916 E41.8345
G1 X62.643 Y153.625 E41.8557
G1 X62.906 Y153.434 E41.8719
G1 X63.191 Y153.272 E41.8883
G1 X63.403 Y153.176 E41.8999
G1 F1200 E40.8999
G0 F6000 X62.573 Y162.952
;TYPE:WALL-INNER
;WIDTH:0.400
G1 F1200 E41.8999
G1 F900 X62.809 Y163.525 E41.9308
G1 X63.117 Y163.928 E41.9561
G1 X63.540 Y164.260 E41.9829
G1 X64.030 Y164.464 E42.0094
G1 X64.550 Y164.531 E42.0356
G1 X65.069 Y164.464 E42.0617
G1 X65.555 Y164.262 E42.0879
G1 X65.634 Y164.202 E42.0929
G1 X65.800 Y164.284 E42.1021
G1 X65.800 Y170.037 E42.3891
G1 X91.300 Y170.037 E43.6613
G1 X91.300 Y164.284 E43.9483
G1 X91.466 Y164.202 E43.9576
G1 X91.545 Y164.262 E43.9625
G1 X92.031 Y164.464 E43.9888
G1 X92.550 Y164.531 E44.0149
G1 X93.069 Y164.464 E44.0410
G1 X93.539 Y164.269 E44.0664
G1 X93.967 Y163.947 E44.0931
G1 X94.291 Y163.527 E44.1196
G1 X94.527 Y162.952 E44.1506
G1 X94.767 Y163.000 E44.1628
G1 X94.767 Y190.011 E45.5104
G1 X94.736 Y190.247 E45.5223
G1 X94.642 Y190.615 E45.5412
G1 X93.050 Y190.616 E45.6206
G1 X93.050 Y176.478 E46.3260
G1 X92.817 Y175.004 E46.4004
G1 X92.116 Y173.626 E46.4776
G1 X90.999 Y172.494 E46.5569
G1 X89.599 Y171.779 E46.6353
G1 X88.128 Y171.546 E46.7096
G1 X68.872 Y171.546 E47.6703
G1 X67.401 Y171.779 E47.7446
G1 X66.004 Y172.493 E47.8229
G1 X64.894 Y173.604 E47.9012
G1 X64.183 Y175.004 E47.9796
G1 X63.950 Y176.478 E48.0540
G1 X63.950 Y190.616 E48.7594
G1 X62.358 Y190.616 E48.8388
G1 X62.264 Y190.248 E48.8578
G1 X62.233 Y190.012 E48.8696
G1 X62.233 Y170.972 E49.8195
G1 X62.817 Y170.875 E49.8491
G1 X62.667 Y169.042 E49.9408
G1 X62.333 Y169.041 E49.9575
G1 X62.333 Y163.000 E50.2589
G1 X62.573 Y162.952 E50.2711
G1 F1200 E49.2711
G0 F6000 X62.945 Y162.521
G1 F1200 E50.2711
G1 F900 X62.999 Y162.936 E50.2920
G1 X63.159 Y163.324 E50.3129
G1 X63.404 Y163.645 E50.3331
G1 X63.744 Y163.912 E50.3546
G1 X64.134 Y164.074 E50.3757
G1 X64.550 Y164.128 E50.3966
G1 X64.965 Y164.074 E50.4175
G1 X65.353 Y163.913 E50.4385
G1 X65.673 Y163.667 E50.4586
G1 X65.999 Y163.250 E50.4850
G1 X66.200 Y163.319 E50.4956
G1 X66.200 Y169.637 E50.8108
G1 X90.900 Y169.637 E52.0431
G1 X90.900 Y163.319 E52.3583
G1 X91.102 Y163.250 E52.3690
G1 X91.414 Y163.657 E52.3945
G1 X91.747 Y163.913 E52.4155
G1 X92.135 Y164.074 E52.4365
G1 X92.550 Y164.128 E52.4573
G1 X92.965 Y164.074 E52.4782
G1 X93.339 Y163.919 E52.4984
G1 X93.683 Y163.660 E52.5199
G1 X93.941 Y163.325 E52.5410
G1 X94.101 Y162.936 E52.5620
G1 X94.155 Y162.521 E52.5828
G1 X94.101 Y162.105 E52.6038
G1 X93.946 Y161.731 E52.6240
G1 X93.688 Y161.387 E52.6454
G1 X93.353 Y161.128 E52.6666
G1 X92.965 Y160.967 E52.6875
G1 X92.550 Y160.913 E52.7084
G1 X92.135 Y160.967 E52.7293
G1 X91.746 Y161.128 E52.7503
G1 X91.414 Y161.385 E52.7712
G1 X91.102 Y161.791 E52.7968
G1 X90.900 Y161.722 E52.8074
G1 X90.900 Y155.404 E53.1226
G1 X66.200 Y155.404 E54.3549
G1 X66.200 Y161.722 E54.6701
G1 X65.998 Y161.791 E54.6808
G1 X65.686 Y161.385 E54.7063
G1 X65.354 Y161.128 E54.7273
G1 X64.965 Y160.967 E54.7483
G1 X64.550 Y160.913 E54.7691
G1 X64.135 Y160.967 E54.7900
G1 X63.746 Y161.128 E54.8110
G1 X63.414 Y161.385 E54.8320
G1 X63.160 Y161.716 E54.8528
G1 X62.999 Y162.105 E54.8738
G1 X62.945 Y162.521 E54.8947
G1 F1200 E53.8947
G0 F6000 X63.348 Y162.521
;TYPE:WALL-OUTER
;WIDTH:0.400
G1 F1200 E54.8947
G1 F900 X63.389 Y162.832 E54.9104
G1 X63.509 Y163.123 E54.9261
G1 X63.691 Y163.362 E54.9411
G1 X63.948 Y163.563 E54.9573
G1 X64.239 Y163.684 E54.9731
G1 X64.550 Y163.725 E54.9887
G1 X64.861 Y163.684 E55.0044
G1 X65.151 Y163.564 E55.0200
G1 X65.389 Y163.381 E55.0350
G1 X65.590 Y163.124 E55.0513
G1 X65.711 Y162.832 E55.0670
G1 X65.752 Y162.521 E55.0827
G1 X65.711 Y162.209 E55.0984
G1 X65.591 Y161.918 E55.1141
G1 X65.400 Y161.670 E55.1297
G1 X65.151 Y161.477 E55.1454
G1 X64.861 Y161.357 E55.1611
G1 X64.550 Y161.316 E55.1767
G1 X64.239 Y161.357 E55.1924
G1 X63.949 Y161.477 E55.2080
G1 X63.700 Y161.670 E55.2238
G1 X63.509 Y161.918 E55.2394
G1 X63.389 Y162.209 E55.2551
G1 X63.348 Y162.521 E55.2708
G1 F1200 E54.2708
G0 F6000 X66.600 Y155.804
G1 F1200 E55.2708
G1 F900 X66.600 Y169.237 E55.9410
G1 X90.500 Y169.237 E57.1333
G1 X90.500 Y155.804 E57.8035
G1 X66.600 Y155.804 E58.9959
G1 F1200 E57.9959
G0 F6000 X91.389 Y162.209
G1 F1200 E58.9959
G1 F900 X91.348 Y162.521 E59.0116
G1 X91.389 Y162.832 E59.0272
G1 X91.509 Y163.123 E59.0429
G1 X91.700 Y163.372 E59.0586
G1 X91.949 Y163.564 E59.0743
G1 X92.239 Y163.684 E59.0899
G1 X92.550 Y163.725 E59.1056
G1 X92.861 Y163.684 E59.1212
G1 X93.139 Y163.569 E59.1362
G1 X93.399 Y163.373 E59.1525
G1 X93.591 Y163.123 E59.1682
G1 X93.711 Y162.832 E59.1839
G1 X93.752 Y162.521 E59.1996
G1 X93.711 Y162.209 E59.2153
G1 X93.596 Y161.930 E59.2303
G1 X93.401 Y161.670 E59.2465
G1 X93.151 Y161.477 E59.2623
G1 X92.861 Y161.357 E59.2780
G1 X92.550 Y161.316 E59.2936
G1 X92.239 Y161.357 E59.3093
G1 X91.949 Y161.477 E59.3249
G1 X91.700 Y161.670 E59.3406
G1 X91.509 Y161.918 E59.3563
