;Sliced by ideaMaker 3.3.0.2343, 2019-02-08 14:33:26 UTC+0530
;Dimension: 305.000 305.000 305.000 0.400 0.400
;Plate Shape: 0
;Extruder Offset #1: 25.000 0.000
;Filament Diameter #1: 1.750
;Filament Diameter #2: 1.750
;Filament Compensation #1: 94.00
;Filament Compensation #2: 94.00
;Filament Density #1: 1240.00
;Filament Density #2: 1240.00
;Model Gap: 0.000
M221 T0 S94.00
M140 S58.00
M104 T0 S213.00
M109 T0 S213.00
T0
M190 S58.00
G21
G90
M82
M107
G28 X0 Y0
G28 Z0
G1 Z15.0 F6000.0
G92 E0
G1 F140 E29
G1 X20 Y0 F140 E30
G92 E0
G1 F6000.0
M117 Printing...
M1001
;LAYER:0
;Z:0.300
;HEIGHT:0.300
M106 S0
G1 F1200 E-1.0000
G0 F6000 X62.518 Y201.187
G0 F1500 Z0.300
;TYPE:SKIRT
;WIDTH:0.400
G1 F1200 E0.0000
G1 F900 X63.209 Y201.017 E0.0355
G1 X63.656 Y200.948 E0.0581
G1 X92.862 Y200.937 E1.5152
G1 X93.501 Y201.001 E1.5472
G1 X94.156 Y201.153 E1.5807
G1 X94.488 Y201.258 E1.5981
G1 X94.817 Y201.382 E1.6157
G1 X95.436 Y201.675 E1.6498
G1 X96.021 Y202.031 E1.6840
G1 X96.303 Y202.235 E1.7014
G1 X96.826 Y202.682 E1.7357
G1 X97.073 Y202.930 E1.7531
G1 X97.515 Y203.451 E1.7872
G1 X97.900 Y204.014 E1.8213
G1 X98.073 Y204.316 E1.8386
G1 X98.367 Y204.941 E1.8731
G1 X98.509 Y205.334 E1.8939
G1 X98.633 Y205.760 E1.9161
G1 X98.746 Y206.265 E1.9419
G1 X98.808 Y206.890 E1.9732
G1 X98.808 Y220.824 E2.6684
G1 X98.898 Y221.348 E2.6949
G1 X98.908 Y221.598 E2.7074
G1 X98.908 Y241.434 E3.6970
G1 X98.881 Y241.846 E3.7176
G1 X98.834 Y242.208 E3.7358
G1 X98.761 Y242.590 E3.7552
G1 X98.538 Y243.461 E3.8001
G1 X98.395 Y243.890 E3.8226
G1 X98.193 Y244.294 E3.8452
G1 X97.928 Y244.677 E3.8684
G1 X97.681 Y244.983 E3.8880
G1 X97.373 Y245.314 E3.9106
G1 X97.021 Y245.598 E3.9332
G1 X96.633 Y245.830 E3.9557
G1 X96.215 Y246.005 E3.9783
G1 X95.778 Y246.119 E4.0008
G1 X95.191 Y246.173 E4.0303
G1 X91.991 Y246.173 E4.1899
G1 X91.540 Y246.141 E4.2125
G1 X91.098 Y246.046 E4.2350
G1 X90.673 Y245.889 E4.2576
G1 X90.275 Y245.674 E4.2802
G1 X89.912 Y245.405 E4.3027
G1 X89.590 Y245.088 E4.3253
G1 X89.315 Y244.728 E4.3479
G1 X89.095 Y244.334 E4.3704
G1 X88.932 Y243.912 E4.3930
G1 X88.830 Y243.471 E4.4155
G1 X88.791 Y242.973 E4.4405
G1 X88.791 Y228.167 E5.1791
G1 X88.713 Y227.672 E5.2041
G1 X88.611 Y227.471 E5.2154
G1 X88.426 Y227.284 E5.2285
G1 X88.225 Y227.182 E5.2398
G1 X87.736 Y227.104 E5.2645
G1 X69.140 Y227.104 E6.1922
G1 X68.660 Y227.180 E6.2165
G1 X68.447 Y227.289 E6.2284
G1 X68.279 Y227.458 E6.2403
G1 X68.169 Y227.673 E6.2523
G1 X68.091 Y228.167 E6.2773
G1 X68.091 Y242.974 E7.0160
G1 X68.059 Y243.425 E7.0386
G1 X67.964 Y243.867 E7.0611
G1 X67.807 Y244.292 E7.0837
G1 X67.592 Y244.690 E7.1063
G1 X67.323 Y245.053 E7.1288
G1 X67.006 Y245.375 E7.1514
G1 X66.646 Y245.650 E7.1740
G1 X66.252 Y245.870 E7.1965
G1 X65.830 Y246.033 E7.2191
G1 X65.389 Y246.135 E7.2416
G1 X64.890 Y246.174 E7.2666
G1 X61.690 Y246.173 E7.4263
G1 X61.239 Y246.141 E7.4488
G1 X60.797 Y246.046 E7.4714
G1 X60.373 Y245.889 E7.4939
G1 X59.975 Y245.674 E7.5165
G1 X59.611 Y245.405 E7.5391
G1 X59.204 Y244.987 E7.5682
G1 X58.957 Y244.682 E7.5878
G1 X58.698 Y244.311 E7.6103
G1 X58.494 Y243.908 E7.6329
G1 X58.344 Y243.462 E7.6564
G1 X58.121 Y242.591 E7.7012
G1 X58.048 Y242.209 E7.7206
G1 X58.001 Y241.847 E7.7388
G1 X57.974 Y241.435 E7.7594
G1 X57.974 Y206.891 E9.4828
G1 X58.038 Y206.252 E9.5149
G1 X58.189 Y205.600 E9.5483
G1 X58.294 Y205.267 E9.5657
G1 X58.557 Y204.621 E9.6005
G1 X58.706 Y204.324 E9.6171
G1 X58.878 Y204.022 E9.6344
G1 X59.212 Y203.528 E9.6641
G1 X59.661 Y202.986 E9.6993
G1 X59.960 Y202.679 E9.7206
G1 X60.220 Y202.446 E9.7381
G1 X60.674 Y202.095 E9.7667
G1 X61.286 Y201.711 E9.8027
G1 X61.650 Y201.523 E9.8232
G1 X61.970 Y201.382 E9.8406
G1 X62.518 Y201.187 E9.8696
G1 F1200 E8.8696
G0 F6000 X104.479 Y202.187
G1 F1200 E9.8696
G1 F900 X104.479 Y173.114 E11.3201
G1 X104.504 Y172.716 E11.3400
G1 X104.623 Y171.955 E11.3784
G1 X104.829 Y171.220 E11.4165
G1 X105.124 Y170.507 E11.4550
G1 X105.506 Y169.830 E11.4938
G1 X105.726 Y169.512 E11.5131
G1 X106.219 Y168.922 E11.5514
G1 X106.483 Y168.656 E11.5701
G1 X106.771 Y168.399 E11.5894
G1 X107.081 Y168.155 E11.6091
G1 X107.399 Y167.935 E11.6284
G1 X108.067 Y167.557 E11.6666
G1 X108.433 Y167.392 E11.6867
G1 X109.158 Y167.142 E11.7249
G1 X109.516 Y167.052 E11.7434
G1 X110.137 Y166.947 E11.7748
G1 X110.855 Y166.776 E11.8116
G1 X111.529 Y166.552 E11.8470
G1 X112.206 Y166.253 E11.8840
G1 X112.846 Y165.895 E11.9205
G1 X113.470 Y165.466 E11.9583
G1 X114.035 Y164.995 E11.9950
G1 X114.567 Y164.460 E12.0327
G1 X115.030 Y163.898 E12.0690
G1 X115.455 Y163.271 E12.1068
G1 X115.813 Y162.622 E12.1438
G1 X116.111 Y161.938 E12.1810
G1 X116.389 Y161.090 E12.2255
G1 X116.560 Y160.671 E12.2481
G1 X116.789 Y160.281 E12.2706
G1 X117.070 Y159.926 E12.2932
G1 X117.398 Y159.615 E12.3158
G1 X117.767 Y159.353 E12.3384
G1 X118.169 Y159.146 E12.3609
G1 X118.596 Y158.998 E12.3835
G1 X119.040 Y158.911 E12.4060
G1 X119.491 Y158.888 E12.4286
G1 X119.942 Y158.928 E12.4512
G1 X120.382 Y159.032 E12.4737
G1 X120.803 Y159.197 E12.4963
G1 X121.279 Y159.476 E12.5238
G1 X121.978 Y159.971 E12.5665
G1 X122.755 Y160.592 E12.6162
G1 X123.524 Y161.301 E12.6683
G1 X124.383 Y162.219 E12.7311
G1 X125.035 Y163.033 E12.7831
G1 X125.508 Y163.705 E12.8241
G1 X126.160 Y164.782 E12.8869
G1 X126.632 Y165.711 E12.9389
G1 X126.955 Y166.459 E12.9795
G1 X127.359 Y167.593 E13.0396
G1 X127.982 Y167.950 E13.0754
G1 X128.582 Y168.396 E13.1127
G1 X129.140 Y168.922 E13.1510
G1 X129.631 Y169.510 E13.1892
G1 X130.039 Y170.139 E13.2266
G1 X130.376 Y170.822 E13.2646
G1 X130.522 Y171.199 E13.2848
G1 X130.642 Y171.579 E13.3046
G1 X130.736 Y171.955 E13.3240
G1 X130.808 Y172.341 E13.3436
G1 X130.855 Y172.724 E13.3628
G1 X130.879 Y173.114 E13.3823
G1 X130.877 Y205.310 E14.9886
G1 X130.706 Y209.993 E15.2224
G1 X130.438 Y214.872 E15.4662
G1 X130.117 Y219.281 E15.6867
G1 X129.688 Y224.002 E15.9232
G1 X129.180 Y228.657 E16.1568
G1 X128.589 Y233.303 E16.3905
G1 X127.923 Y237.880 E16.6212
G1 X127.165 Y242.501 E16.8549
G1 X126.313 Y247.165 E17.0914
G1 X125.388 Y251.755 E17.3250
G1 X124.381 Y256.327 E17.5586
G1 X123.345 Y260.658 E17.7807
G1 X123.281 Y261.146 E17.8053
G1 X123.191 Y261.589 E17.8278
G1 X123.065 Y261.954 E17.8471
G1 X122.815 Y262.558 E17.8797
G1 X122.613 Y262.962 E17.9023
G1 X122.401 Y263.276 E17.9212
G1 X122.004 Y263.796 E17.9538
G1 X121.705 Y264.135 E17.9763
G1 X121.411 Y264.391 E17.9958
G1 X120.893 Y264.789 E18.0284
G1 X120.515 Y265.039 E18.0510
G1 X120.169 Y265.208 E18.0702
G1 X119.566 Y265.458 E18.1028
G1 X119.137 Y265.601 E18.1253
G1 X118.762 Y265.674 E18.1444
G1 X118.115 Y265.760 E18.1770
G1 X117.663 Y265.788 E18.1995
G1 X117.271 Y265.760 E18.2192
G1 X116.624 Y265.674 E18.2517
G1 X116.181 Y265.583 E18.2743
G1 X115.820 Y265.458 E18.2933
G1 X115.217 Y265.208 E18.3259
G1 X114.813 Y265.006 E18.3484
G1 X114.493 Y264.789 E18.3677
G1 X113.975 Y264.391 E18.4003
G1 X113.637 Y264.091 E18.4229
G1 X113.382 Y263.796 E18.4423
G1 X112.985 Y263.276 E18.4750
G1 X112.736 Y262.898 E18.4975
G1 X112.571 Y262.558 E18.5164
G1 X112.321 Y261.954 E18.5490
G1 X112.178 Y261.525 E18.5716
G1 X112.105 Y261.146 E18.5908
G1 X112.020 Y260.497 E18.6235
G1 X111.993 Y260.045 E18.6461
G1 X112.020 Y259.665 E18.6651
G1 X112.105 Y259.017 E18.6977
G1 X112.196 Y258.574 E18.7202
G1 X112.319 Y258.215 E18.7392
G1 X112.557 Y257.637 E18.7704
G1 X112.758 Y257.232 E18.7929
G1 X112.955 Y256.937 E18.8106
G1 X113.364 Y256.391 E18.8447
G1 X113.660 Y256.049 E18.8672
G1 X113.787 Y255.937 E18.8757
G1 X113.703 Y253.410 E19.0018
G1 X113.502 Y249.015 E19.2213
G1 X113.249 Y244.662 E19.4388
G1 X112.941 Y240.315 E19.6563
G1 X112.578 Y235.971 E19.8737
G1 X112.162 Y231.632 E20.0912
G1 X111.695 Y227.339 E20.3067
G1 X111.165 Y222.972 E20.5261
G1 X110.586 Y218.651 E20.7436
G1 X109.954 Y214.337 E20.9611
G1 X109.267 Y210.033 E21.1786
G1 X108.932 Y208.090 E21.2770
G1 X108.418 Y207.904 E21.3042
G1 X108.057 Y207.740 E21.3240
G1 X107.376 Y207.351 E21.3631
G1 X106.776 Y206.906 E21.4004
G1 X106.488 Y206.650 E21.4196
G1 X105.959 Y206.086 E21.4582
G1 X105.506 Y205.471 E21.4963
G1 X105.306 Y205.140 E21.5156
G1 X105.126 Y204.798 E21.5349
G1 X104.965 Y204.441 E21.5544
G1 X104.717 Y203.724 E21.5923
G1 X104.623 Y203.349 E21.6116
G1 X104.552 Y202.968 E21.6309
G1 X104.504 Y202.584 E21.6502
G1 X104.479 Y202.187 E21.6701
G1 F1200 E20.6701
G0 F6000 X63.763 Y205.198
;TYPE:WALL-INNER
;WIDTH:0.400
G1 F1200 E21.6701
G1 F900 X64.033 Y205.137 E21.6839
G1 X92.761 Y205.137 E23.1171
G1 X92.940 Y205.174 E23.1262
G1 X93.169 Y205.246 E23.1382
G1 X93.390 Y205.343 E23.1502
G1 X93.600 Y205.464 E23.1623
G1 X93.797 Y205.608 E23.1745
G1 X93.977 Y205.768 E23.1865
G1 X94.139 Y205.949 E23.1986
G1 X94.281 Y206.147 E23.2108
G1 X94.401 Y206.357 E23.2229
G1 X94.493 Y206.566 E23.2343
G1 X94.608 Y207.001 E23.2567
G1 X94.608 Y213.399 E23.5759
G1 X94.368 Y213.447 E23.5881
G1 X94.130 Y212.873 E23.6191
G1 X93.811 Y212.458 E23.6452
G1 X93.398 Y212.139 E23.6713
G1 X92.915 Y211.937 E23.6974
G1 X92.407 Y211.869 E23.7230
G1 X91.872 Y211.935 E23.7499
G1 X91.384 Y212.139 E23.7762
G1 X91.307 Y212.198 E23.7811
G1 X91.141 Y212.117 E23.7903
G1 X91.141 Y206.363 E24.0774
G1 X65.641 Y206.363 E25.3496
G1 X65.641 Y212.117 E25.6366
G1 X65.475 Y212.198 E25.6458
G1 X65.398 Y212.140 E25.6507
G1 X64.914 Y211.935 E25.6769
G1 X64.391 Y211.868 E25.7032
G1 X63.868 Y211.935 E25.7295
G1 X63.384 Y212.140 E25.7557
G1 X62.971 Y212.458 E25.7817
G1 X62.652 Y212.873 E25.8078
G1 X62.414 Y213.447 E25.8388
G1 X62.174 Y213.399 E25.8510
G1 X62.174 Y206.992 E26.1707
G1 X62.283 Y206.581 E26.1919
G1 X62.382 Y206.358 E26.2041
G1 X62.501 Y206.147 E26.2162
G1 X62.813 Y205.762 E26.2409
G1 X62.977 Y205.616 E26.2518
G1 X63.408 Y205.338 E26.2774
G1 X63.763 Y205.198 E26.2965
G0 F6000 X63.658 Y204.812
G1 F900 X63.988 Y204.737 E26.3134
G1 X92.802 Y204.737 E27.7509
G1 X93.041 Y204.786 E27.7631
G1 X93.310 Y204.871 E27.7771
G1 X93.571 Y204.986 E27.7914
G1 X93.818 Y205.128 E27.8056
G1 X94.049 Y205.296 E27.8198
G1 X94.260 Y205.485 E27.8340
G1 X94.451 Y205.698 E27.8482
G1 X94.618 Y205.930 E27.8625
G1 X94.759 Y206.177 E27.8767
G1 X94.872 Y206.433 E27.8906
G1 X95.008 Y206.949 E27.9173
G1 X95.008 Y220.798 E28.6082
G1 X94.643 Y220.798 E28.6264
G1 X94.556 Y221.904 E28.6818
G1 X95.108 Y221.992 E28.7096
G1 X95.108 Y241.395 E29.6777
G1 X95.070 Y241.682 E29.6921
G1 X94.894 Y242.373 E29.7277
G1 X92.591 Y242.373 E29.8426
G1 X92.591 Y227.867 E30.5663
G1 X92.373 Y226.488 E30.6359
G1 X91.729 Y225.221 E30.7068
G1 X90.701 Y224.180 E30.7798
G1 X89.416 Y223.522 E30.8519
G1 X88.038 Y223.304 E30.9215
G1 X68.822 Y223.307 E31.8802
G1 X67.467 Y223.522 E31.9486
G1 X66.183 Y224.179 E32.0206
G1 X65.163 Y225.200 E32.0926
G1 X64.509 Y226.488 E32.1646
G1 X64.291 Y227.867 E32.2343
G1 X64.291 Y242.374 E32.9580
G1 X61.988 Y242.373 E33.0729
G1 X61.812 Y241.683 E33.1085
G1 X61.774 Y241.396 E33.1229
G1 X61.774 Y206.951 E34.8414
G1 X61.823 Y206.712 E34.8535
G1 X61.908 Y206.440 E34.8678
G1 X62.024 Y206.178 E34.8821
G1 X62.164 Y205.931 E34.8962
G1 X62.279 Y205.772 E34.9060
G1 X62.526 Y205.482 E34.9250
G1 X62.734 Y205.297 E34.9389
G1 X63.217 Y204.985 E34.9676
G1 X63.473 Y204.871 E34.9816
G1 X63.658 Y204.812 E34.9913
G1 F1200 E33.9913
G0 F6000 X63.552 Y204.426
;TYPE:WALL-OUTER
;WIDTH:0.400
G1 F1200 E34.9913
G1 F900 X63.943 Y204.337 E35.0113
G1 X92.842 Y204.337 E36.4530
G1 X93.141 Y204.398 E36.4683
G1 X93.452 Y204.496 E36.4845
G1 X93.752 Y204.629 E36.5009
G1 X94.036 Y204.792 E36.5172
G1 X94.301 Y204.984 E36.5336
G1 X94.544 Y205.202 E36.5499
G1 X94.763 Y205.447 E36.5663
G1 X94.955 Y205.713 E36.5826
G1 X95.117 Y205.997 E36.5989
G1 X95.249 Y206.296 E36.6152
G1 X95.367 Y206.702 E36.6363
G1 X95.408 Y206.910 E36.6469
G1 X95.408 Y221.198 E37.3597
G1 X95.013 Y221.198 E37.3794
G1 X94.984 Y221.567 E37.3979
G1 X95.370 Y221.628 E37.4174
G1 X95.508 Y221.698 E37.4251
G1 X95.508 Y241.421 E38.4091
G1 X95.464 Y241.758 E38.4261
G1 X95.255 Y242.575 E38.4681
G1 X95.095 Y242.773 E38.4808
G1 X92.191 Y242.773 E38.6257
G1 X92.191 Y227.898 E39.3678
G1 X91.988 Y226.613 E39.4327
G1 X91.401 Y225.458 E39.4974
G1 X90.462 Y224.507 E39.5641
G1 X89.290 Y223.907 E39.6298
G1 X88.007 Y223.704 E39.6946
G1 X68.854 Y223.707 E40.6501
G1 X67.592 Y223.907 E40.7139
G1 X66.421 Y224.506 E40.7795
G1 X65.491 Y225.438 E40.8452
G1 X64.894 Y226.613 E40.9109
G1 X64.691 Y227.898 E40.9758
G1 X64.691 Y242.774 E41.7180
G1 X61.786 Y242.773 E41.8629
G1 X61.627 Y242.576 E41.8755
G1 X61.418 Y241.759 E41.9176
G1 X61.374 Y241.422 E41.9346
G1 X61.374 Y206.911 E43.6563
G1 X61.435 Y206.612 E43.6716
G1 X61.533 Y206.299 E43.6879
G1 X61.666 Y205.998 E43.7043
G1 X61.827 Y205.714 E43.7206
G1 X61.964 Y205.525 E43.7323
G1 X62.239 Y205.202 E43.7534
G1 X62.482 Y204.985 E43.7697
G1 X62.670 Y204.848 E43.7813
G1 X63.032 Y204.629 E43.8024
G1 X63.331 Y204.497 E43.8187
G1 X63.552 Y204.426 E43.8303
G1 F1200 E42.8303
G0 F6000 X62.414 Y214.310
;TYPE:WALL-INNER
;WIDTH:0.400
G1 F1200 E43.8303
G1 F900 X62.650 Y214.883 E43.8612
G1 X62.958 Y215.286 E43.8865
G1 X63.381 Y215.618 E43.9133
G1 X63.871 Y215.822 E43.9398
G1 X64.391 Y215.889 E43.9660
G1 X64.910 Y215.822 E43.9921
G1 X65.396 Y215.620 E44.0183
G1 X65.475 Y215.560 E44.0233
G1 X65.641 Y215.642 E44.0325
G1 X65.641 Y221.395 E44.3195
G1 X91.141 Y221.395 E45.5917
G1 X91.141 Y215.642 E45.8788
G1 X91.307 Y215.560 E45.8880
G1 X91.386 Y215.620 E45.8930
G1 X91.872 Y215.822 E45.9192
G1 X92.391 Y215.889 E45.9453
G1 X92.910 Y215.822 E45.9714
G1 X93.396 Y215.620 E45.9977
G1 X93.813 Y215.300 E46.0239
G1 X94.132 Y214.883 E46.0501
G1 X94.368 Y214.310 E46.0810
G1 X94.608 Y214.358 E46.0932
G1 X94.608 Y220.398 E46.3946
G1 X94.273 Y220.398 E46.4113
G1 X94.128 Y222.241 E46.5035
G1 X94.708 Y222.333 E46.5328
G1 X94.708 Y241.369 E47.4825
G1 X94.677 Y241.606 E47.4944
G1 X94.583 Y241.973 E47.5133
G1 X92.991 Y241.973 E47.5928
G1 X92.991 Y227.836 E48.2981
G1 X92.758 Y226.363 E48.3725
G1 X92.057 Y224.984 E48.4496
G1 X90.940 Y223.853 E48.5290
G1 X89.542 Y223.137 E48.6073
G1 X88.069 Y222.904 E48.6817
G1 X68.790 Y222.907 E49.6435
G1 X67.341 Y223.137 E49.7167
G1 X65.945 Y223.852 E49.7950
G1 X64.835 Y224.962 E49.8733
G1 X64.124 Y226.363 E49.9517
G1 X63.891 Y227.836 E50.0261
G1 X63.891 Y241.974 E50.7314
G1 X62.299 Y241.973 E50.8109
G1 X62.205 Y241.607 E50.8297
G1 X62.174 Y241.370 E50.8416
G1 X62.174 Y214.358 E52.1893
G1 X62.414 Y214.310 E52.2015
G1 F1200 E51.2015
G0 F6000 X62.786 Y213.879
G1 F1200 E52.2015
G1 F900 X62.840 Y214.294 E52.2224
G1 X63.000 Y214.682 E52.2433
G1 X63.245 Y215.003 E52.2635
G1 X63.585 Y215.270 E52.2850
G1 X63.975 Y215.432 E52.3061
G1 X64.391 Y215.486 E52.3270
G1 X64.806 Y215.432 E52.3479
G1 X65.194 Y215.271 E52.3689
G1 X65.527 Y215.015 E52.3898
G1 X65.839 Y214.608 E52.4154
G1 X66.041 Y214.677 E52.4260
G1 X66.041 Y220.995 E52.7413
G1 X90.741 Y220.995 E53.9735
G1 X90.741 Y214.677 E54.2887
G1 X90.943 Y214.608 E54.2994
G1 X91.255 Y215.015 E54.3250
G1 X91.588 Y215.271 E54.3459
G1 X91.976 Y215.432 E54.3669
G1 X92.391 Y215.486 E54.3878
G1 X92.806 Y215.432 E54.4087
G1 X93.194 Y215.271 E54.4296
G1 X93.527 Y215.015 E54.4506
G1 X93.782 Y214.682 E54.4715
G1 X93.942 Y214.294 E54.4924
G1 X93.996 Y213.879 E54.5133
G1 X93.942 Y213.463 E54.5342
G1 X93.781 Y213.075 E54.5552
G1 X93.526 Y212.743 E54.5761
G1 X93.195 Y212.488 E54.5969
G1 X92.809 Y212.326 E54.6178
G1 X92.405 Y212.272 E54.6381
G1 X91.976 Y212.325 E54.6597
G1 X91.587 Y212.488 E54.6808
G1 X91.256 Y212.743 E54.7016
G1 X90.943 Y213.150 E54.7272
G1 X90.741 Y213.081 E54.7379
G1 X90.741 Y206.763 E55.0531
G1 X66.041 Y206.763 E56.2854
G1 X66.041 Y213.081 E56.6006
G1 X65.839 Y213.150 E56.6112
G1 X65.526 Y212.743 E56.6368
G1 X65.195 Y212.488 E56.6577
G1 X64.809 Y212.325 E56.6786
G1 X64.391 Y212.271 E56.6996
G1 X63.973 Y212.325 E56.7206
G1 X63.587 Y212.488 E56.7415
G1 X63.256 Y212.743 E56.7624
G1 X63.001 Y213.075 E56.7833
G1 X62.840 Y213.463 E56.8042
G1 X62.786 Y213.879 E56.8252
G1 F1200 E55.8252
G0 F6000 X63.189 Y213.879
;TYPE:WALL-OUTER
;WIDTH:0.400
G1 F1200 E56.8252
G1 F900 X63.230 Y214.190 E56.8408
G1 X63.350 Y214.481 E56.8565
G1 X63.532 Y214.720 E56.8715
G1 X63.789 Y214.921 E56.8878
G1 X64.080 Y215.042 E56.9035
G1 X64.391 Y215.083 E56.9191
G1 X64.702 Y215.042 E56.9348
G1 X64.992 Y214.922 E56.9505
