;Sliced by ideaMaker 3.3.0.2343, 2019-02-08 14:31:28 UTC+0530
;Dimension: 305.000 305.000 305.000 0.400 0.400
;Plate Shape: 0
;Extruder Offset #1: 25.000 0.000
;Filament Diameter #1: 1.750
;Filament Diameter #2: 1.750
;Filament Compensation #1: 94.00
;Filament Compensation #2: 94.00
;Filament Density #1: 1240.00
;Filament Density #2: 1240.00
;Model Gap: 0.000
M221 T0 S94.00
M140 S58.00
M104 T0 S213.00
M109 T0 S213.00
T0
M190 S58.00
G21
G90
M82
M107
G28 X0 Y0
G28 Z0
G1 Z15.0 F6000.0
G92 E0
G1 F140 E29
G1 X20 Y0 F140 E30
G92 E0
G1 F6000.0
M117 Printing...
M1001
;LAYER:0
;Z:0.300
;HEIGHT:0.300
M106 S0
G1 F1200 E-1.0000
G0 F6000 X72.663 Y188.806
G0 F1500 Z0.300
;TYPE:SKIRT
;WIDTH:0.400
G1 F1200 E0.0000
G1 F900 X73.215 Y188.610 E0.0292
G1 X73.906 Y188.440 E0.0647
G1 X74.353 Y188.371 E0.0873
G1 X103.559 Y188.360 E1.5444
G1 X104.198 Y188.424 E1.5764
G1 X104.853 Y188.576 E1.6100
G1 X105.185 Y188.681 E1.6273
G1 X105.514 Y188.805 E1.6449
G1 X106.126 Y189.094 E1.6786
G1 X106.429 Y189.267 E1.6961
G1 X107.006 Y189.663 E1.7310
G1 X107.523 Y190.105 E1.7649
G1 X107.766 Y190.348 E1.7821
G1 X108.212 Y190.873 E1.8164
G1 X108.416 Y191.156 E1.8338
G1 X108.772 Y191.743 E1.8681
G1 X108.926 Y192.051 E1.8853
G1 X109.182 Y192.680 E1.9191
G1 X109.288 Y193.013 E1.9366
G1 X109.442 Y193.681 E1.9708
G1 X109.505 Y194.312 E2.0024
G1 X109.505 Y208.247 E2.6976
G1 X109.595 Y208.771 E2.7242
G1 X109.605 Y209.021 E2.7366
G1 X109.605 Y228.857 E3.7263
G1 X109.578 Y229.270 E3.7469
G1 X109.531 Y229.631 E3.7651
G1 X109.458 Y230.011 E3.7844
G1 X109.235 Y230.883 E3.8293
G1 X109.092 Y231.312 E3.8518
G1 X108.891 Y231.717 E3.8744
G1 X108.625 Y232.100 E3.8977
G1 X108.378 Y232.406 E3.9173
G1 X108.070 Y232.737 E3.9398
G1 X107.718 Y233.021 E3.9624
G1 X107.330 Y233.253 E3.9850
G1 X106.912 Y233.428 E4.0076
G1 X106.475 Y233.542 E4.0301
G1 X105.888 Y233.596 E4.0595
G1 X102.688 Y233.596 E4.2192
G1 X102.237 Y233.564 E4.2417
G1 X101.795 Y233.469 E4.2643
G1 X101.370 Y233.312 E4.2869
G1 X100.972 Y233.097 E4.3094
G1 X100.609 Y232.828 E4.3320
G1 X100.287 Y232.511 E4.3545
G1 X100.012 Y232.151 E4.3771
G1 X99.792 Y231.757 E4.3996
G1 X99.629 Y231.335 E4.4222
G1 X99.527 Y230.894 E4.4448
G1 X99.488 Y230.396 E4.4697
G1 X99.488 Y215.590 E5.2084
G1 X99.410 Y215.096 E5.2333
G1 X99.307 Y214.893 E5.2447
G1 X99.123 Y214.707 E5.2577
G1 X98.923 Y214.605 E5.2689
G1 X98.433 Y214.527 E5.2937
G1 X79.837 Y214.527 E6.2215
G1 X79.356 Y214.603 E6.2457
G1 X79.146 Y214.710 E6.2575
G1 X78.973 Y214.883 E6.2697
G1 X78.866 Y215.094 E6.2815
G1 X78.788 Y215.590 E6.3066
G1 X78.788 Y230.397 E7.0453
G1 X78.756 Y230.848 E7.0678
G1 X78.661 Y231.290 E7.0904
G1 X78.504 Y231.715 E7.1130
G1 X78.289 Y232.113 E7.1356
G1 X78.020 Y232.476 E7.1581
G1 X77.703 Y232.798 E7.1807
G1 X77.343 Y233.073 E7.2033
G1 X76.949 Y233.293 E7.2258
G1 X76.527 Y233.456 E7.2483
G1 X76.086 Y233.558 E7.2709
G1 X75.587 Y233.597 E7.2959
G1 X72.387 Y233.596 E7.4555
G1 X71.936 Y233.564 E7.4781
G1 X71.494 Y233.469 E7.5007
G1 X71.070 Y233.312 E7.5232
G1 X70.672 Y233.097 E7.5458
G1 X70.308 Y232.828 E7.5684
G1 X69.901 Y232.410 E7.5975
G1 X69.654 Y232.105 E7.6171
G1 X69.395 Y231.734 E7.6396
G1 X69.191 Y231.331 E7.6622
G1 X69.041 Y230.884 E7.6857
G1 X68.818 Y230.012 E7.7306
G1 X68.745 Y229.632 E7.7499
G1 X68.698 Y229.271 E7.7681
G1 X68.671 Y228.858 E7.7887
G1 X68.671 Y194.313 E9.5122
G1 X68.736 Y193.673 E9.5443
G1 X68.803 Y193.345 E9.5610
G1 X68.881 Y193.038 E9.5768
G1 X69.057 Y192.516 E9.6042
G1 X69.228 Y192.104 E9.6265
G1 X69.405 Y191.744 E9.6465
G1 X69.578 Y191.441 E9.6639
G1 X69.903 Y190.958 E9.6930
G1 X70.365 Y190.401 E9.7291
G1 X70.654 Y190.106 E9.7497
G1 X70.913 Y189.873 E9.7671
G1 X71.363 Y189.523 E9.7955
G1 X71.993 Y189.129 E9.8326
G1 X72.344 Y188.947 E9.8523
G1 X72.663 Y188.806 E9.8697
G1 F1200 E8.8697
G0 F6000 X115.784 Y192.836
G1 F1200 E9.8697
G1 F900 X115.783 Y160.768 E11.4696
G1 X115.847 Y160.133 E11.5014
G1 X116.004 Y159.450 E11.5364
G1 X116.232 Y158.793 E11.5711
G1 X116.526 Y158.165 E11.6057
G1 X116.891 Y157.559 E11.6410
G1 X117.316 Y157.002 E11.6759
G1 X117.800 Y156.489 E11.7111
G1 X118.333 Y156.033 E11.7461
G1 X118.911 Y155.638 E11.7810
G1 X119.436 Y155.351 E11.8109
G1 X119.593 Y154.962 E11.8318
G1 X120.255 Y153.580 E11.9082
G1 X120.426 Y153.268 E11.9260
G1 X121.236 Y151.970 E12.0023
G1 X121.441 Y151.679 E12.0201
G1 X122.391 Y150.478 E12.0965
G1 X122.630 Y150.209 E12.1144
G1 X123.708 Y149.123 E12.1908
G1 X123.975 Y148.882 E12.2087
G1 X125.002 Y148.057 E12.2744
G1 X125.374 Y147.800 E12.2970
G1 X125.778 Y147.597 E12.3196
G1 X126.207 Y147.453 E12.3421
G1 X126.652 Y147.372 E12.3647
G1 X127.104 Y147.353 E12.3873
G1 X127.554 Y147.399 E12.4098
G1 X127.993 Y147.508 E12.4324
G1 X128.412 Y147.677 E12.4549
G1 X128.803 Y147.904 E12.4775
G1 X129.158 Y148.184 E12.5001
G1 X129.471 Y148.511 E12.5226
G1 X129.734 Y148.879 E12.5452
G1 X129.995 Y149.410 E12.5747
G1 X130.224 Y150.011 E12.6068
G1 X130.549 Y150.669 E12.6434
G1 X130.929 Y151.293 E12.6799
G1 X131.358 Y151.872 E12.7158
G1 X131.856 Y152.430 E12.7531
G1 X132.384 Y152.923 E12.7892
G1 X132.961 Y153.372 E12.8257
G1 X133.585 Y153.772 E12.8626
G1 X134.219 Y154.102 E12.8983
G1 X134.902 Y154.381 E12.9351
G1 X135.596 Y154.595 E12.9713
G1 X136.803 Y154.846 E13.0328
G1 X137.134 Y154.934 E13.0499
G1 X137.779 Y155.159 E13.0840
G1 X138.110 Y155.304 E13.1020
G1 X138.731 Y155.639 E13.1372
G1 X139.016 Y155.822 E13.1541
G1 X139.578 Y156.252 E13.1894
G1 X139.846 Y156.494 E13.2075
G1 X140.322 Y156.998 E13.2420
G1 X140.751 Y157.560 E13.2773
G1 X141.116 Y158.166 E13.3126
G1 X141.265 Y158.463 E13.3292
G1 X141.528 Y159.106 E13.3639
G1 X141.726 Y159.790 E13.3994
G1 X141.796 Y160.137 E13.4170
G1 X141.859 Y160.770 E13.4488
G1 X141.859 Y189.810 E14.8976
G1 X141.798 Y190.432 E14.9288
G1 X141.639 Y191.130 E14.9645
G1 X141.413 Y191.784 E14.9990
G1 X141.268 Y192.116 E15.0171
G1 X140.936 Y192.734 E15.0521
G1 X140.752 Y193.021 E15.0691
G1 X140.323 Y193.583 E15.1044
G1 X139.847 Y194.087 E15.1389
G1 X139.579 Y194.329 E15.1570
G1 X139.023 Y194.755 E15.1919
G1 X138.726 Y194.947 E15.2096
G1 X138.118 Y195.274 E15.2440
G1 X137.435 Y195.552 E15.2808
G1 X137.072 Y197.648 E15.3869
G1 X136.376 Y201.994 E15.6065
G1 X135.747 Y206.268 E15.8220
G1 X135.161 Y210.630 E16.0416
G1 X134.635 Y214.959 E16.2592
G1 X134.163 Y219.295 E16.4768
G1 X133.751 Y223.595 E16.6923
G1 X133.386 Y227.981 E16.9118
G1 X133.083 Y232.291 E17.1274
G1 X132.829 Y236.685 E17.3470
G1 X132.633 Y241.041 E17.5645
G1 X132.548 Y243.649 E17.6947
G1 X132.751 Y243.829 E17.7082
G1 X133.002 Y244.120 E17.7274
G1 X133.376 Y244.610 E17.7582
G1 X133.624 Y244.988 E17.7807
G1 X133.789 Y245.330 E17.7997
G1 X134.022 Y245.895 E17.8302
G1 X134.165 Y246.324 E17.8527
G1 X134.236 Y246.696 E17.8716
G1 X134.316 Y247.302 E17.9021
G1 X134.344 Y247.754 E17.9247
G1 X134.317 Y248.135 E17.9438
G1 X134.238 Y248.741 E17.9743
G1 X134.148 Y249.184 E17.9968
G1 X134.024 Y249.545 E18.0159
G1 X133.791 Y250.111 E18.0464
G1 X133.590 Y250.516 E18.0689
G1 X133.374 Y250.837 E18.0882
G1 X133.003 Y251.322 E18.1187
G1 X132.703 Y251.661 E18.1413
G1 X132.411 Y251.915 E18.1606
G1 X131.927 Y252.287 E18.1911
G1 X131.550 Y252.537 E18.2136
G1 X131.203 Y252.706 E18.2329
G1 X130.639 Y252.940 E18.2633
G1 X130.210 Y253.083 E18.2859
G1 X129.827 Y253.157 E18.3054
G1 X129.222 Y253.236 E18.3358
G1 X128.771 Y253.263 E18.3583
G1 X128.389 Y253.235 E18.3775
G1 X127.784 Y253.155 E18.4079
G1 X127.340 Y253.065 E18.4305
G1 X126.977 Y252.939 E18.4497
G1 X126.413 Y252.705 E18.4801
G1 X126.008 Y252.502 E18.5027
G1 X125.689 Y252.286 E18.5220
G1 X125.205 Y251.914 E18.5524
G1 X124.867 Y251.614 E18.5750
G1 X124.613 Y251.321 E18.5943
G1 X124.242 Y250.836 E18.6248
G1 X123.994 Y250.458 E18.6473
G1 X123.825 Y250.110 E18.6666
G1 X123.592 Y249.544 E18.6972
G1 X123.450 Y249.115 E18.7197
G1 X123.379 Y248.746 E18.7385
G1 X123.317 Y248.274 E18.7622
G1 X122.265 Y243.874 E18.9879
G1 X121.259 Y239.303 E19.2214
G1 X120.336 Y234.716 E19.4549
G1 X119.495 Y230.112 E19.6883
G1 X118.747 Y225.550 E19.9190
G1 X118.072 Y220.919 E20.1525
G1 X117.474 Y216.219 E20.3888
G1 X116.968 Y211.567 E20.6223
G1 X116.545 Y206.906 E20.8558
G1 X116.211 Y202.295 E21.0864
G1 X115.953 Y197.564 E21.3228
G1 X115.784 Y192.836 E21.5589
G1 F1200 E20.5589
G0 F6000 X74.100 Y192.764
;TYPE:WALL-INNER
;WIDTH:0.400
G1 F1200 E21.5589
G1 F900 X74.304 Y192.673 E21.5700
G1 X74.736 Y192.560 E21.5923
G1 X103.458 Y192.560 E23.0252
G1 X103.637 Y192.597 E23.0343
G1 X103.866 Y192.669 E23.0463
G1 X104.298 Y192.886 E23.0704
G1 X104.494 Y193.029 E23.0825
G1 X104.673 Y193.191 E23.0946
G1 X104.836 Y193.372 E23.1067
G1 X104.978 Y193.569 E23.1189
G1 X105.098 Y193.780 E23.1310
G1 X105.196 Y194.003 E23.1431
G1 X105.305 Y194.412 E23.1642
G1 X105.305 Y200.822 E23.4840
G1 X105.065 Y200.870 E23.4962
G1 X104.827 Y200.295 E23.5273
G1 X104.510 Y199.881 E23.5533
G1 X104.094 Y199.560 E23.5795
G1 X103.607 Y199.358 E23.6058
G1 X103.088 Y199.291 E23.6319
G1 X102.569 Y199.358 E23.6580
G1 X102.083 Y199.560 E23.6843
G1 X102.005 Y199.620 E23.6892
G1 X101.838 Y199.538 E23.6985
G1 X101.838 Y193.785 E23.9855
G1 X76.338 Y193.785 E25.2577
G1 X76.338 Y199.538 E25.5447
G1 X76.171 Y199.619 E25.5540
G1 X76.094 Y199.560 E25.5588
G1 X75.607 Y199.358 E25.5851
G1 X75.088 Y199.291 E25.6112
G1 X74.569 Y199.358 E25.6373
G1 X74.082 Y199.560 E25.6636
G1 X73.666 Y199.881 E25.6899
G1 X73.349 Y200.295 E25.7159
G1 X73.111 Y200.870 E25.7469
G1 X72.871 Y200.822 E25.7591
G1 X72.871 Y194.423 E26.0784
G1 X72.959 Y194.073 E26.0964
G1 X73.084 Y193.772 E26.1126
G1 X73.291 Y193.441 E26.1321
G1 X73.511 Y193.185 E26.1490
G1 X73.683 Y193.029 E26.1605
G1 X74.100 Y192.764 E26.1852
G0 F6000 X73.915 Y192.408
G1 F900 X74.171 Y192.294 E26.1992
G1 X74.685 Y192.160 E26.2257
G1 X103.499 Y192.160 E27.6632
G1 X103.738 Y192.209 E27.6754
G1 X104.007 Y192.294 E27.6895
G1 X104.268 Y192.409 E27.7037
G1 X104.515 Y192.550 E27.7179
G1 X104.746 Y192.718 E27.7321
G1 X104.957 Y192.908 E27.7463
G1 X105.148 Y193.121 E27.7606
G1 X105.315 Y193.352 E27.7748
G1 X105.456 Y193.600 E27.7890
G1 X105.571 Y193.862 E27.8033
G1 X105.657 Y194.134 E27.8175
G1 X105.705 Y194.372 E27.8296
G1 X105.705 Y208.220 E28.5205
G1 X105.340 Y208.220 E28.5387
G1 X105.253 Y209.324 E28.5940
G1 X105.805 Y209.413 E28.6219
G1 X105.805 Y228.818 E29.5900
G1 X105.768 Y229.104 E29.6044
G1 X105.591 Y229.796 E29.6400
G1 X103.288 Y229.796 E29.7549
G1 X103.288 Y215.290 E30.4786
G1 X103.070 Y213.910 E30.5483
G1 X102.426 Y212.644 E30.6192
G1 X101.398 Y211.602 E30.6922
G1 X100.112 Y210.945 E30.7643
G1 X98.735 Y210.727 E30.8338
G1 X79.519 Y210.730 E31.7925
G1 X78.164 Y210.945 E31.8610
G1 X76.880 Y211.601 E31.9329
G1 X75.860 Y212.623 E32.0049
G1 X75.206 Y213.910 E32.0769
G1 X74.988 Y215.290 E32.1467
G1 X74.988 Y229.797 E32.8704
G1 X72.685 Y229.796 E32.9853
G1 X72.508 Y229.105 E33.0209
G1 X72.471 Y228.819 E33.0353
G1 X72.471 Y194.374 E34.7537
G1 X72.578 Y193.947 E34.7757
G1 X72.724 Y193.596 E34.7947
G1 X72.863 Y193.352 E34.8087
G1 X72.976 Y193.194 E34.8184
G1 X73.224 Y192.905 E34.8374
G1 X73.431 Y192.718 E34.8513
G1 X73.588 Y192.604 E34.8610
G1 X73.915 Y192.408 E34.8800
G1 F1200 E33.8800
G0 F6000 X73.730 Y192.052
;TYPE:WALL-OUTER
;WIDTH:0.400
G1 F1200 E34.8800
G1 F900 X74.028 Y191.920 E34.8963
G1 X74.249 Y191.849 E34.9078
G1 X74.640 Y191.760 E34.9278
G1 X103.539 Y191.760 E36.3696
G1 X103.838 Y191.821 E36.3848
G1 X104.149 Y191.919 E36.4011
G1 X104.449 Y192.052 E36.4175
G1 X104.733 Y192.214 E36.4338
G1 X104.998 Y192.407 E36.4501
G1 X105.241 Y192.625 E36.4664
G1 X105.460 Y192.870 E36.4828
G1 X105.652 Y193.135 E36.4992
G1 X105.814 Y193.420 E36.5155
G1 X105.946 Y193.721 E36.5319
G1 X106.045 Y194.034 E36.5483
G1 X106.105 Y194.332 E36.5635
G1 X106.105 Y208.620 E37.2763
G1 X105.710 Y208.620 E37.2960
G1 X105.681 Y208.988 E37.3144
G1 X106.066 Y209.050 E37.3339
G1 X106.205 Y209.121 E37.3417
G1 X106.205 Y228.844 E38.3256
G1 X106.161 Y229.180 E38.3425
G1 X105.952 Y229.998 E38.3847
G1 X105.792 Y230.196 E38.3974
G1 X102.888 Y230.196 E38.5422
G1 X102.888 Y215.321 E39.2844
G1 X102.685 Y214.035 E39.3493
G1 X102.098 Y212.881 E39.4139
G1 X101.159 Y211.929 E39.4806
G1 X99.987 Y211.330 E39.5463
G1 X98.704 Y211.127 E39.6111
G1 X79.551 Y211.130 E40.5666
G1 X78.289 Y211.330 E40.6304
G1 X77.118 Y211.928 E40.6960
G1 X76.188 Y212.861 E40.7617
G1 X75.591 Y214.035 E40.8274
G1 X75.388 Y215.321 E40.8924
G1 X75.388 Y230.197 E41.6345
G1 X72.483 Y230.196 E41.7795
G1 X72.324 Y229.999 E41.7921
G1 X72.115 Y229.181 E41.8342
G1 X72.071 Y228.845 E41.8511
G1 X72.071 Y194.333 E43.5729
G1 X72.132 Y194.035 E43.5881
G1 X72.201 Y193.811 E43.5998
G1 X72.364 Y193.419 E43.6210
G1 X72.526 Y193.136 E43.6373
G1 X72.661 Y192.947 E43.6488
G1 X72.937 Y192.625 E43.6700
G1 X73.179 Y192.407 E43.6862
G1 X73.367 Y192.270 E43.6979
G1 X73.730 Y192.052 E43.7190
G1 F1200 E42.7190
G0 F6000 X73.111 Y201.733
;TYPE:WALL-INNER
;WIDTH:0.400
G1 F1200 E43.7190
G1 F900 X73.349 Y202.308 E43.7500
G1 X73.668 Y202.722 E43.7761
G1 X74.086 Y203.045 E43.8025
G1 X74.585 Y203.247 E43.8293
G1 X75.088 Y203.312 E43.8546
G1 X75.607 Y203.245 E43.8807
G1 X76.094 Y203.043 E43.9070
G1 X76.171 Y202.984 E43.9119
G1 X76.338 Y203.065 E43.9211
G1 X76.338 Y208.818 E44.2081
G1 X101.838 Y208.818 E45.4803
G1 X101.838 Y203.065 E45.7674
G1 X102.005 Y202.984 E45.7766
G1 X102.082 Y203.043 E45.7815
G1 X102.569 Y203.245 E45.8078
G1 X103.095 Y203.314 E45.8342
G1 X103.624 Y203.237 E45.8609
G1 X104.093 Y203.043 E45.8862
G1 X104.510 Y202.722 E45.9125
G1 X104.827 Y202.308 E45.9385
G1 X105.065 Y201.733 E45.9695
G1 X105.305 Y201.781 E45.9818
G1 X105.305 Y207.820 E46.2830
G1 X104.970 Y207.820 E46.2998
G1 X104.825 Y209.660 E46.3918
G1 X105.405 Y209.754 E46.4211
G1 X105.405 Y228.792 E47.3710
G1 X105.374 Y229.028 E47.3828
G1 X105.280 Y229.396 E47.4018
G1 X103.688 Y229.396 E47.4812
G1 X103.688 Y215.259 E48.1865
G1 X103.455 Y213.785 E48.2610
G1 X102.754 Y212.407 E48.3381
G1 X101.637 Y211.275 E48.4174
G1 X100.237 Y210.560 E48.4959
G1 X98.766 Y210.327 E48.5702
G1 X79.487 Y210.330 E49.5320
G1 X78.039 Y210.560 E49.6051
G1 X76.642 Y211.274 E49.6834
G1 X75.532 Y212.385 E49.7618
G1 X74.821 Y213.785 E49.8401
G1 X74.588 Y215.259 E49.9146
G1 X74.588 Y229.397 E50.6199
G1 X72.995 Y229.396 E50.6994
G1 X72.902 Y229.029 E50.7183
G1 X72.871 Y228.793 E50.7301
G1 X72.871 Y201.781 E52.0778
G1 X73.111 Y201.733 E52.0900
G1 F1200 E51.0900
G0 F6000 X73.483 Y201.302
G1 F1200 E52.0900
G1 F900 X73.537 Y201.717 E52.1109
G1 X73.698 Y202.106 E52.1319
G1 X73.953 Y202.437 E52.1527
G1 X74.287 Y202.695 E52.1738
G1 X74.687 Y202.857 E52.1953
G1 X75.088 Y202.909 E52.2155
G1 X75.503 Y202.855 E52.2364
G1 X75.892 Y202.694 E52.2574
G1 X76.224 Y202.437 E52.2783
G1 X76.536 Y202.031 E52.3038
G1 X76.738 Y202.100 E52.3145
G1 X76.738 Y208.418 E52.6297
G1 X101.438 Y208.418 E53.8620
G1 X101.438 Y202.100 E54.1772
G1 X101.640 Y202.031 E54.1878
G1 X101.952 Y202.437 E54.2134
G1 X102.284 Y202.694 E54.2343
G1 X102.673 Y202.855 E54.2553
G1 X103.092 Y202.910 E54.2764
G1 X103.517 Y202.848 E54.2979
G1 X103.891 Y202.694 E54.3180
G1 X104.224 Y202.437 E54.3390
G1 X104.478 Y202.106 E54.3598
G1 X104.639 Y201.717 E54.3808
G1 X104.693 Y201.302 E54.4017
G1 X104.639 Y200.886 E54.4226
G1 X104.478 Y200.497 E54.4437
G1 X104.224 Y200.166 E54.4645
G1 X103.892 Y199.909 E54.4854
G1 X103.503 Y199.748 E54.5064
G1 X103.088 Y199.694 E54.5273
G1 X102.673 Y199.748 E54.5482
G1 X102.285 Y199.909 E54.5691
G1 X101.965 Y200.156 E54.5893
G1 X101.639 Y200.572 E54.6157
G1 X101.438 Y200.502 E54.6263
G1 X101.438 Y194.185 E54.9414
G1 X76.738 Y194.185 E56.1737
G1 X76.738 Y200.503 E56.4889
G1 X76.536 Y200.572 E56.4996
G1 X76.224 Y200.166 E56.5251
G1 X75.892 Y199.909 E56.5461
G1 X75.503 Y199.748 E56.5671
G1 X75.088 Y199.694 E56.5880
G1 X74.673 Y199.748 E56.6088
G1 X74.284 Y199.909 E56.6298
G1 X73.952 Y200.166 E56.6508
G1 X73.698 Y200.497 E56.6716
G1 X73.537 Y200.886 E56.6926
G1 X73.483 Y201.302 E56.7135
G1 F1200 E55.7135
G0 F6000 X73.886 Y201.302
;TYPE:WALL-OUTER
;WIDTH:0.400
G1 F1200 E56.7135
G1 F900 X73.927 Y201.613 E56.7292
G1 X74.047 Y201.904 E56.7449
G1 X74.238 Y202.152 E56.7605
G1 X74.488 Y202.345 E56.7763
G1 X74.790 Y202.467 E56.7925
G1 X75.088 Y202.506 E56.8075
G1 X75.399 Y202.465 E56.8232
