;Sliced by ideaMaker 3.3.0.2343, 2019-02-07 21:13:59 UTC+0530
;Dimension: 305.000 305.000 305.000 0.400 0.400
;Plate Shape: 0
;Extruder Offset #1: 25.000 0.000
;Filament Diameter #1: 1.750
;Filament Diameter #2: 1.750
;Filament Compensation #1: 94.00
;Filament Compensation #2: 94.00
;Filament Density #1: 1240.00
;Filament Density #2: 1240.00
;Model Gap: 0.000
M221 T0 S94.00
M140 S58.00
M104 T0 S213.00
M109 T0 S213.00
T0
M190 S58.00
G21
G90
M82
M107
G28 X0 Y0
G28 Z0
G1 Z15.0 F6000.0
G92 E0
G1 F140 E29
G1 X20 Y0 F140 E30
G92 E0
G1 F6000.0
M117 Printing...
M1001
;LAYER:0
;Z:0.300
;HEIGHT:0.300
M106 S0
G1 F1200 E-1.0000
G0 F6000 X104.782 Y151.677
G0 F1500 Z0.300
G0 F6000 X104.444 Y151.977
;TYPE:SKIRT
;WIDTH:0.400
G1 F1200 E0.0000
G1 F900 X104.782 Y151.677 E0.0225
G1 X105.159 Y151.427 E0.0451
G1 X105.567 Y151.232 E0.0677
G1 X105.999 Y151.098 E0.0902
G1 X106.516 Y151.019 E0.1163
G1 X109.940 Y151.007 E0.2872
G1 X110.391 Y151.039 E0.3097
G1 X110.833 Y151.134 E0.3323
G1 X111.257 Y151.291 E0.3548
G1 X111.655 Y151.506 E0.3774
G1 X112.019 Y151.775 E0.4000
G1 X112.341 Y152.093 E0.4226
G1 X112.615 Y152.452 E0.4451
G1 X112.836 Y152.847 E0.4677
G1 X112.999 Y153.269 E0.4902
G1 X113.100 Y153.710 E0.5128
G1 X113.139 Y154.207 E0.5377
G1 X113.139 Y178.079 E1.7287
G1 X113.193 Y178.494 E1.7495
G1 X113.271 Y178.682 E1.7597
G1 X113.395 Y178.844 E1.7699
G1 X113.557 Y178.969 E1.7801
G1 X113.741 Y179.045 E1.7900
G1 X114.147 Y179.099 E1.8104
G1 X135.231 Y179.099 E2.8623
G1 X135.630 Y179.046 E2.8824
G1 X135.829 Y178.963 E2.8932
G1 X135.983 Y178.845 E2.9028
G1 X136.107 Y178.682 E2.9131
G1 X136.185 Y178.494 E2.9232
G1 X136.239 Y178.079 E2.9441
G1 X136.239 Y154.207 E4.1351
G1 X136.271 Y153.756 E4.1576
G1 X136.366 Y153.314 E4.1802
G1 X136.523 Y152.889 E4.2028
G1 X136.738 Y152.491 E4.2254
G1 X137.007 Y152.128 E4.2479
G1 X137.324 Y151.806 E4.2704
G1 X137.684 Y151.531 E4.2930
G1 X138.078 Y151.311 E4.3156
G1 X138.500 Y151.148 E4.3381
G1 X138.941 Y151.046 E4.3607
G1 X139.439 Y151.007 E4.3856
G1 X142.639 Y151.007 E4.5453
G1 X143.090 Y151.039 E4.5678
G1 X143.532 Y151.134 E4.5904
G1 X143.957 Y151.291 E4.6130
G1 X144.355 Y151.506 E4.6356
G1 X144.718 Y151.775 E4.6581
G1 X145.136 Y152.183 E4.6872
G1 X145.428 Y152.529 E4.7098
G1 X145.669 Y152.911 E4.7324
G1 X145.899 Y153.459 E4.7620
G1 X146.092 Y154.073 E4.7941
G1 X146.194 Y154.497 E4.8159
G1 X146.315 Y155.209 E4.8519
G1 X146.360 Y155.745 E4.8788
G1 X146.360 Y180.777 E6.1276
G1 X146.333 Y181.190 E6.1483
G1 X146.205 Y182.174 E6.1978
G1 X146.115 Y182.617 E6.2203
G1 X145.990 Y182.982 E6.2396
G1 X145.619 Y183.881 E6.2881
G1 X145.417 Y184.286 E6.3107
G1 X145.200 Y184.607 E6.3300
G1 X144.608 Y185.379 E6.3785
G1 X144.308 Y185.718 E6.4011
G1 X144.022 Y185.967 E6.4200
G1 X143.252 Y186.560 E6.4685
G1 X142.875 Y186.810 E6.4911
G1 X142.525 Y186.981 E6.5105
G1 X141.628 Y187.353 E6.5590
G1 X141.199 Y187.496 E6.5815
G1 X140.820 Y187.570 E6.6008
G1 X139.840 Y187.699 E6.6501
G1 X139.422 Y187.726 E6.6710
G1 X135.611 Y187.726 E6.8611
G1 X135.611 Y187.900 E6.8698
G1 X142.639 Y187.900 E7.2204
G1 X143.260 Y187.957 E7.2516
G1 X143.701 Y188.056 E7.2741
G1 X144.150 Y188.225 E7.2980
G1 X144.553 Y188.431 E7.3206
G1 X144.936 Y188.702 E7.3440
G1 X145.390 Y189.118 E7.3748
G1 X145.739 Y189.573 E7.4034
G1 X145.968 Y189.963 E7.4259
G1 X146.117 Y190.309 E7.4447
G1 X146.254 Y190.740 E7.4673
G1 X146.332 Y191.199 E7.4905
G1 X146.360 Y191.622 E7.5117
G1 X146.361 Y210.857 E8.4713
G1 X146.315 Y211.397 E8.4983
G1 X146.193 Y212.110 E8.5344
G1 X146.092 Y212.530 E8.5560
G1 X145.899 Y213.144 E8.5881
G1 X145.733 Y213.564 E8.6106
G1 X145.510 Y213.958 E8.6332
G1 X145.136 Y214.420 E8.6629
G1 X144.929 Y214.632 E8.6776
G1 X144.591 Y214.932 E8.7002
G1 X144.214 Y215.182 E8.7228
G1 X143.805 Y215.376 E8.7453
G1 X143.373 Y215.511 E8.7679
G1 X142.927 Y215.583 E8.7905
G1 X139.439 Y215.596 E8.9645
G1 X138.988 Y215.564 E8.9870
G1 X138.546 Y215.469 E9.0096
G1 X138.121 Y215.312 E9.0322
G1 X137.723 Y215.097 E9.0548
G1 X137.360 Y214.828 E9.0773
G1 X137.038 Y214.511 E9.0998
G1 X136.763 Y214.151 E9.1224
G1 X136.543 Y213.757 E9.1450
G1 X136.380 Y213.335 E9.1675
G1 X136.278 Y212.894 E9.1901
G1 X136.239 Y212.396 E9.2150
G1 X136.237 Y197.529 E9.9568
G1 X136.185 Y197.131 E9.9768
G1 X136.107 Y196.943 E9.9869
G1 X135.982 Y196.780 E9.9972
G1 X135.823 Y196.658 E10.0072
G1 X135.635 Y196.579 E10.0174
G1 X135.231 Y196.526 E10.0377
G1 X114.147 Y196.526 E11.0896
G1 X113.743 Y196.579 E11.1099
G1 X113.555 Y196.658 E11.1201
G1 X113.396 Y196.780 E11.1301
G1 X113.271 Y196.943 E11.1403
G1 X113.193 Y197.131 E11.1505
G1 X113.139 Y197.546 E11.1713
G1 X113.139 Y212.396 E11.9122
G1 X113.107 Y212.847 E11.9348
G1 X113.012 Y213.289 E11.9573
G1 X112.855 Y213.714 E11.9799
G1 X112.640 Y214.112 E12.0025
G1 X112.371 Y214.475 E12.0250
G1 X112.054 Y214.797 E12.0476
G1 X111.694 Y215.072 E12.0702
G1 X111.300 Y215.292 E12.0927
G1 X110.878 Y215.455 E12.1153
G1 X110.437 Y215.557 E12.1379
G1 X109.939 Y215.596 E12.1628
G1 X106.739 Y215.596 E12.3224
G1 X106.288 Y215.564 E12.3450
G1 X105.846 Y215.469 E12.3675
G1 X105.421 Y215.312 E12.3901
G1 X105.023 Y215.097 E12.4127
G1 X104.660 Y214.828 E12.4352
G1 X104.242 Y214.420 E12.4644
G1 X103.950 Y214.074 E12.4870
G1 X103.709 Y213.692 E12.5095
G1 X103.479 Y213.144 E12.5392
G1 X103.286 Y212.530 E12.5713
G1 X103.184 Y212.106 E12.5930
G1 X103.063 Y211.394 E12.6291
G1 X103.018 Y210.858 E12.6559
G1 X103.017 Y191.622 E13.6156
G1 X103.063 Y191.066 E13.6434
G1 X103.154 Y190.623 E13.6660
G1 X103.280 Y190.257 E13.6853
G1 X103.535 Y189.728 E13.7146
G1 X103.824 Y189.313 E13.7398
G1 X104.123 Y188.974 E13.7624
G1 X104.528 Y188.632 E13.7888
G1 X104.905 Y188.382 E13.8114
G1 X105.383 Y188.159 E13.8377
G1 X105.812 Y188.016 E13.8603
G1 X106.316 Y187.927 E13.8858
G1 X106.739 Y187.899 E13.9069
G1 X113.768 Y187.899 E14.2576
G1 X113.768 Y187.725 E14.2663
G1 X109.957 Y187.725 E14.4564
G1 X109.539 Y187.698 E14.4773
G1 X108.559 Y187.569 E14.5266
G1 X108.116 Y187.478 E14.5492
G1 X107.751 Y187.352 E14.5685
G1 X106.854 Y186.980 E14.6169
G1 X106.450 Y186.778 E14.6395
G1 X106.127 Y186.559 E14.6589
G1 X105.357 Y185.966 E14.7074
G1 X105.020 Y185.666 E14.7299
G1 X104.769 Y185.376 E14.7491
G1 X104.178 Y184.604 E14.7976
G1 X103.929 Y184.227 E14.8201
G1 X103.761 Y183.880 E14.8393
G1 X103.390 Y182.981 E14.8879
G1 X103.247 Y182.552 E14.9104
G1 X103.176 Y182.180 E14.9293
G1 X103.046 Y181.197 E14.9788
G1 X103.018 Y180.777 E14.9998
G1 X103.018 Y155.745 E16.2486
G1 X103.063 Y155.209 E16.2755
G1 X103.184 Y154.497 E16.3115
G1 X103.286 Y154.073 E16.3333
G1 X103.479 Y153.459 E16.3654
G1 X103.645 Y153.039 E16.3879
G1 X103.868 Y152.645 E16.4105
G1 X104.242 Y152.184 E16.4401
G1 X104.444 Y151.977 E16.4545
G1 F1200 E15.4545
G0 F6000 X107.037 Y154.812
;TYPE:WALL-INNER
;WIDTH:0.400
G1 F1200 E16.4545
G1 F900 X109.339 Y154.808 E16.5694
G1 X109.339 Y178.328 E17.7428
G1 X109.490 Y179.483 E17.8009
G1 X109.950 Y180.597 E17.8610
G1 X110.682 Y181.551 E17.9210
G1 X111.636 Y182.286 E17.9811
G1 X112.747 Y182.747 E18.0411
G1 X113.900 Y182.899 E18.0991
G1 X135.478 Y182.899 E19.1757
G1 X136.633 Y182.747 E19.2338
G1 X137.756 Y182.275 E19.2946
G1 X138.697 Y181.551 E19.3538
G1 X139.428 Y180.596 E19.4138
G1 X139.888 Y179.483 E19.4739
G1 X140.039 Y178.328 E19.5320
G1 X140.039 Y154.807 E20.7055
G1 X142.339 Y154.807 E20.8202
G1 X142.454 Y155.174 E20.8394
G1 X142.560 Y155.796 E20.8709
G1 X142.560 Y180.738 E22.1152
G1 X142.447 Y181.605 E22.1589
G1 X142.136 Y182.358 E22.1995
G1 X141.640 Y183.005 E22.2402
G1 X140.996 Y183.501 E22.2807
G1 X140.245 Y183.812 E22.3213
G1 X139.383 Y183.926 E22.3647
G1 X135.133 Y183.926 E22.5767
G1 X134.313 Y184.034 E22.6180
G1 X133.496 Y184.374 E22.6621
G1 X132.794 Y184.913 E22.7063
G1 X132.256 Y185.616 E22.7504
G1 X131.918 Y186.434 E22.7946
G1 X131.811 Y187.255 E22.8359
G1 X131.811 Y188.370 E22.8915
G1 X131.917 Y189.192 E22.9329
G1 X132.255 Y190.011 E22.9771
G1 X132.793 Y190.714 E23.0212
G1 X133.495 Y191.253 E23.0654
G1 X134.313 Y191.593 E23.1096
G1 X135.132 Y191.700 E23.1508
G1 X142.560 Y191.700 E23.5214
G1 X142.561 Y210.806 E24.4746
G1 X142.454 Y211.429 E24.5061
G1 X142.339 Y211.796 E24.5253
G1 X140.039 Y211.796 E24.6401
G1 X140.037 Y197.280 E25.3643
G1 X139.888 Y196.142 E25.4215
G1 X139.428 Y195.028 E25.4817
G1 X138.696 Y194.074 E25.5416
G1 X137.742 Y193.340 E25.6017
G1 X136.631 Y192.878 E25.6617
G1 X135.478 Y192.726 E25.7198
G1 X113.900 Y192.726 E26.7963
G1 X112.747 Y192.878 E26.8543
G1 X111.636 Y193.340 E26.9143
G1 X110.682 Y194.074 E26.9744
G1 X109.950 Y195.028 E27.0344
G1 X109.490 Y196.142 E27.0945
G1 X109.339 Y197.297 E27.1526
G1 X109.339 Y211.796 E27.8760
G1 X107.039 Y211.796 E27.9907
G1 X106.924 Y211.429 E28.0099
G1 X106.818 Y210.807 E28.0414
G1 X106.817 Y191.699 E28.9947
G1 X114.245 Y191.699 E29.3653
G1 X115.065 Y191.591 E29.4065
G1 X115.882 Y191.251 E29.4507
G1 X116.584 Y190.712 E29.4948
G1 X117.122 Y190.009 E29.5390
G1 X117.460 Y189.191 E29.5832
G1 X117.567 Y188.370 E29.6245
G1 X117.567 Y187.255 E29.6801
G1 X117.461 Y186.433 E29.7214
G1 X117.123 Y185.615 E29.7656
G1 X116.585 Y184.912 E29.8098
G1 X115.883 Y184.373 E29.8539
G1 X115.066 Y184.033 E29.8981
G1 X114.246 Y183.925 E29.9393
G1 X109.996 Y183.925 E30.1514
G1 X109.134 Y183.811 E30.1948
G1 X108.383 Y183.500 E30.2353
G1 X107.739 Y183.004 E30.2759
G1 X107.244 Y182.357 E30.3165
G1 X106.933 Y181.604 E30.3571
G1 X106.818 Y180.738 E30.4007
G1 X106.818 Y155.796 E31.6451
G1 X106.924 Y155.174 E31.6766
G1 X107.037 Y154.812 E31.6955
G1 F1200 E30.6955
G0 F6000 X106.708 Y154.525
;TYPE:WALL-OUTER
;WIDTH:0.400
G1 F1200 E31.6955
G1 F900 X106.818 Y154.412 E31.7034
G1 X109.739 Y154.407 E31.8491
G1 X109.739 Y178.302 E33.0412
G1 X109.880 Y179.379 E33.0954
G1 X110.300 Y180.395 E33.1503
G1 X110.968 Y181.266 E33.2050
G1 X111.838 Y181.937 E33.2598
G1 X112.852 Y182.357 E33.3146
G1 X113.926 Y182.499 E33.3686
G1 X135.452 Y182.499 E34.4426
G1 X136.527 Y182.357 E34.4967
G1 X137.553 Y181.926 E34.5522
G1 X138.411 Y181.266 E34.6062
G1 X139.078 Y180.395 E34.6609
G1 X139.498 Y179.379 E34.7158
G1 X139.639 Y178.302 E34.7700
G1 X139.639 Y154.407 E35.9621
G1 X142.555 Y154.407 E36.1076
G1 X142.670 Y154.525 E36.1158
G1 X142.844 Y155.080 E36.1448
G1 X142.960 Y155.762 E36.1793
G1 X142.960 Y180.764 E37.4267
G1 X142.837 Y181.709 E37.4742
G1 X142.486 Y182.559 E37.5201
G1 X141.926 Y183.290 E37.5660
G1 X141.198 Y183.850 E37.6119
G1 X140.350 Y184.202 E37.6577
G1 X139.409 Y184.326 E37.7050
G1 X135.159 Y184.326 E37.9171
G1 X134.418 Y184.424 E37.9544
G1 X133.698 Y184.723 E37.9932
G1 X133.080 Y185.198 E38.0321
G1 X132.606 Y185.817 E38.0710
G1 X132.308 Y186.538 E38.1100
G1 X132.211 Y187.281 E38.1473
G1 X132.211 Y188.344 E38.2004
G1 X132.307 Y189.088 E38.2378
G1 X132.605 Y189.810 E38.2768
G1 X133.079 Y190.429 E38.3157
G1 X133.697 Y190.904 E38.3545
G1 X134.417 Y191.203 E38.3934
G1 X135.158 Y191.300 E38.4307
G1 X142.624 Y191.300 E38.8032
G1 X142.794 Y191.343 E38.8120
G1 X142.876 Y191.410 E38.8172
G1 X142.924 Y191.481 E38.8215
G1 X142.960 Y191.635 E38.8294
G1 X142.961 Y210.840 E39.7875
G1 X142.844 Y211.523 E39.8221
G1 X142.670 Y212.078 E39.8511
G1 X142.555 Y212.196 E39.8594
G1 X139.639 Y212.196 E40.0048
G1 X139.637 Y197.306 E40.7477
G1 X139.498 Y196.246 E40.8010
G1 X139.078 Y195.230 E40.8559
G1 X138.410 Y194.359 E40.9106
G1 X137.540 Y193.689 E40.9654
G1 X136.526 Y193.268 E41.0202
G1 X135.452 Y193.126 E41.0743
G1 X113.926 Y193.126 E42.1482
G1 X112.852 Y193.268 E42.2022
G1 X111.838 Y193.689 E42.2570
G1 X110.968 Y194.359 E42.3118
G1 X110.300 Y195.230 E42.3666
G1 X109.880 Y196.246 E42.4214
G1 X109.739 Y197.323 E42.4756
G1 X109.739 Y212.196 E43.2176
G1 X106.823 Y212.196 E43.3631
G1 X106.708 Y212.078 E43.3713
G1 X106.534 Y211.523 E43.4003
G1 X106.418 Y210.841 E43.4349
G1 X106.417 Y191.635 E44.3930
G1 X106.462 Y191.462 E44.4020
G1 X106.513 Y191.394 E44.4062
G1 X106.579 Y191.344 E44.4103
G1 X106.656 Y191.312 E44.4145
G1 X106.752 Y191.299 E44.4193
G1 X114.219 Y191.299 E44.7919
G1 X114.960 Y191.201 E44.8291
G1 X115.680 Y190.902 E44.8680
G1 X116.298 Y190.427 E44.9069
G1 X116.772 Y189.808 E44.9458
G1 X117.070 Y189.087 E44.9847
G1 X117.167 Y188.344 E45.0221
G1 X117.167 Y187.281 E45.0752
G1 X117.071 Y186.537 E45.1126
G1 X116.773 Y185.816 E45.1515
G1 X116.299 Y185.197 E45.1904
G1 X115.681 Y184.722 E45.2293
G1 X114.961 Y184.423 E45.2682
G1 X114.220 Y184.325 E45.3055
G1 X109.970 Y184.325 E45.5175
G1 X109.029 Y184.201 E45.5649
G1 X108.181 Y183.849 E45.6107
G1 X107.453 Y183.289 E45.6565
G1 X106.894 Y182.558 E45.7024
G1 X106.543 Y181.708 E45.7483
G1 X106.418 Y180.764 E45.7958
G1 X106.418 Y155.762 E47.0431
G1 X106.534 Y155.080 E47.0777
G1 X106.708 Y154.525 E47.1067
G1 F1200 E46.1067
G0 F6000 X119.996 Y184.374
;TYPE:WALL-INNER
;WIDTH:0.400
G1 F1200 E47.1067
G1 F900 X119.294 Y184.913 E47.1508
G1 X118.756 Y185.616 E47.1950
G1 X118.418 Y186.434 E47.2392
G1 X118.311 Y187.255 E47.2805
G1 X118.310 Y188.049 E47.3201
G1 X118.311 Y188.370 E47.3361
G1 X118.417 Y189.192 E47.3774
G1 X118.755 Y190.010 E47.4216
G1 X119.293 Y190.713 E47.4658
G1 X119.995 Y191.253 E47.5099
G1 X120.813 Y191.593 E47.5541
G1 X121.632 Y191.700 E47.5954
G1 X127.745 Y191.699 E47.9003
G1 X128.564 Y191.592 E47.9415
G1 X129.382 Y191.252 E47.9857
G1 X130.084 Y190.712 E48.0299
G1 X130.622 Y190.009 E48.0741
G1 X130.960 Y189.191 E48.1182
G1 X131.067 Y188.370 E48.1595
G1 X131.067 Y187.255 E48.2152
G1 X130.961 Y186.433 E48.2565
G1 X130.623 Y185.615 E48.3007
G1 X130.085 Y184.912 E48.3448
G1 X129.383 Y184.373 E48.3890
G1 X128.566 Y184.033 E48.4332
G1 X127.746 Y183.925 E48.4744
G1 X121.631 Y183.925 E48.7795
G1 X120.812 Y184.034 E48.8207
G1 X119.996 Y184.374 E48.8648
G1 F1200 E47.8648
G0 F6000 X120.198 Y184.723
;TYPE:WALL-OUTER
;WIDTH:0.400
G1 F1200 E48.8648
G1 F900 X119.580 Y185.198 E48.9037
G1 X119.106 Y185.817 E48.9426
G1 X118.808 Y186.538 E48.9815
G1 X118.711 Y187.281 E49.0189
G1 X118.710 Y188.049 E49.0572
G1 X118.711 Y188.344 E49.0719
G1 X118.807 Y189.088 E49.1094
G1 X119.105 Y189.809 E49.1483
G1 X119.579 Y190.428 E49.1872
G1 X120.197 Y190.904 E49.2261
G1 X120.917 Y191.203 E49.2650
G1 X121.658 Y191.300 E49.3023
G1 X127.719 Y191.299 E49.6047
G1 X128.460 Y191.202 E49.6419
G1 X129.180 Y190.903 E49.6808
G1 X129.798 Y190.427 E49.7198
G1 X130.272 Y189.808 E49.7587
G1 X130.570 Y189.087 E49.7976
G1 X130.667 Y188.344 E49.8350
G1 X130.667 Y187.281 E49.8880
G1 X130.571 Y186.537 E49.9254
G1 X130.273 Y185.816 E49.9643
G1 X129.799 Y185.197 E50.0032
G1 X129.181 Y184.722 E50.0421
G1 X128.461 Y184.423 E50.0810
G1 X127.720 Y184.325 E50.1183
G1 X121.658 Y184.325 E50.4207
G1 X120.917 Y184.424 E50.4580
G1 X120.198 Y184.723 E50.4969
G1 F1200 E49.4969
G0 F6000 X142.281 Y191.779
;TYPE:SOLID-FILL
;WIDTH:0.400
G1 F1200 E50.4969
G1 F900 X142.480 Y191.978 E50.5109
G0 F6000 X142.480 Y192.543
G1 F900 X141.716 Y191.779 E50.5648
G1 F1200 E49.5648
G0 F6000 X141.150 Y191.779
G1 F1200 E50.5648
G1 F900 X142.480 Y193.109 E50.6587
G1 F1200 E49.6587
G0 F6000 X142.480 Y193.675
G1 F1200 E50.6587
G1 F900 X140.584 Y191.779 E50.7924
G1 F1200 E49.7924
G0 F6000 X140.019 Y191.779
G1 F1200 E50.7924
G1 F900 X142.480 Y194.240 E50.9661
G1 F1200 E49.9661
G0 F6000 X142.480 Y194.806
G1 F1200 E50.9661
G1 F900 X139.453 Y191.779 E51.1797
G1 F1200 E50.1797
G0 F6000 X138.887 Y191.779
G1 F1200 E51.1797
G1 F900 X142.480 Y195.372 E51.4332
G1 F1200 E50.4332
G0 F6000 X142.480 Y195.937
G1 F1200 E51.4332
G1 F900 X138.322 Y191.779 E51.7265
G1 F1200 E50.7265
G0 F6000 X137.756 Y191.779
G1 F1200 E51.7265
G1 F900 X142.480 Y196.503 E52.0598
G1 F1200 E51.0598
G0 F6000 X142.480 Y197.069
G1 F1200 E52.0598
G1 F900 X137.190 Y191.779 E52.4331
G1 F1200 E51.4331
G0 F6000 X136.625 Y191.779
G1 F1200 E52.4331
G1 F900 X142.480 Y197.634 E52.8462
G1 F1200 E51.8462
G0 F6000 X142.480 Y198.200
G1 F1200 E52.8462
G1 F900 X139.659 Y195.379 E53.0452
G1 F1200 E52.0452
G0 F6000 X139.985 Y196.270
G1 F1200 E53.0452
G1 F900 X142.480 Y198.766 E53.2213
G1 F1200 E52.2213
G0 F6000 X142.480 Y199.331
G1 F1200 E53.2213
G1 F900 X140.071 Y196.922 E53.3913
G1 F1200 E52.3913
G0 F6000 X140.117 Y197.534
G1 F1200 E53.3913
G1 F900 X142.480 Y199.897 E53.5580
G1 F1200 E52.5580
G0 F6000 X142.480 Y200.463
G1 F1200 E53.5580
G1 F900 X140.117 Y198.100 E53.7247
