;Sliced by ideaMaker 3.3.0.2343, 2019-02-07 21:05:21 UTC+0530
;Dimension: 305.000 305.000 305.000 0.400 0.400
;Plate Shape: 0
;Extruder Offset #1: 25.000 0.000
;Filament Diameter #1: 1.750
;Filament Diameter #2: 1.750
;Filament Compensation #1: 94.00
;Filament Compensation #2: 94.00
;Filament Density #1: 1240.00
;Filament Density #2: 1240.00
;Model Gap: 0.000
M221 T0 S94.00
M140 S58.00
M104 T0 S213.00
M109 T0 S213.00
T0
M190 S58.00
G21
G90
M82
M107
G28 X0 Y0
G28 Z0
G1 Z15.0 F6000.0
G92 E0
G1 F140 E29
G1 X20 Y0 F140 E30
G92 E0
G1 F6000.0
M117 Printing...
M1001
;LAYER:0
;Z:0.300
;HEIGHT:0.300
M106 S0
G1 F1200 E-1.0000
G0 F6000 X146.016 Y143.965
G0 F1500 Z0.300
G0 F6000 X146.306 Y143.712
;TYPE:SKIRT
;WIDTH:0.400
G1 F1200 E0.0000
G1 F900 X147.549 Y142.756 E0.0782
G1 X147.926 Y142.507 E0.1008
G1 X148.273 Y142.338 E0.1200
G1 X149.720 Y141.737 E0.1982
G1 X150.148 Y141.593 E0.2207
G1 X150.528 Y141.520 E0.2400
G1 X152.081 Y141.315 E0.3182
G1 X152.533 Y141.287 E0.3408
G1 X152.919 Y141.315 E0.3601
G1 X154.472 Y141.520 E0.4382
G1 X154.915 Y141.610 E0.4608
G1 X155.280 Y141.737 E0.4801
G1 X156.727 Y142.338 E0.5582
G1 X157.132 Y142.540 E0.5808
G1 X157.451 Y142.756 E0.6000
G1 X158.694 Y143.712 E0.6783
G1 X159.032 Y144.013 E0.7009
G1 X159.284 Y144.304 E0.7201
G1 X160.237 Y145.549 E0.7983
G1 X160.486 Y145.927 E0.8209
G1 X160.653 Y146.271 E0.8399
G1 X161.253 Y147.722 E0.9183
G1 X161.396 Y148.151 E0.9408
G1 X161.469 Y148.529 E0.9600
G1 X161.673 Y150.086 E1.0384
G1 X161.700 Y150.502 E1.0592
G1 X161.700 Y160.513 E1.5586
G1 X161.668 Y160.964 E1.5812
G1 X161.573 Y161.406 E1.6038
G1 X161.416 Y161.831 E1.6264
G1 X161.201 Y162.229 E1.6489
G1 X160.932 Y162.592 E1.6715
G1 X160.615 Y162.914 E1.6940
G1 X160.255 Y163.189 E1.7166
G1 X159.861 Y163.409 E1.7391
G1 X159.439 Y163.572 E1.7617
G1 X158.998 Y163.674 E1.7843
G1 X158.500 Y163.713 E1.8092
G1 X146.500 Y163.713 E2.4079
G1 X146.049 Y163.681 E2.4304
G1 X145.607 Y163.586 E2.4530
G1 X145.182 Y163.429 E2.4756
G1 X144.784 Y163.214 E2.4982
G1 X144.421 Y162.945 E2.5207
G1 X144.099 Y162.628 E2.5432
G1 X143.824 Y162.268 E2.5658
G1 X143.604 Y161.874 E2.5884
G1 X143.441 Y161.452 E2.6109
G1 X143.339 Y161.011 E2.6335
G1 X143.300 Y160.513 E2.6584
G1 X143.300 Y150.502 E3.1579
G1 X143.327 Y150.086 E3.1787
G1 X143.531 Y148.529 E3.2570
G1 X143.621 Y148.086 E3.2796
G1 X143.747 Y147.722 E3.2988
G1 X144.347 Y146.271 E3.3771
G1 X144.549 Y145.867 E3.3997
G1 X144.763 Y145.549 E3.4188
G1 X145.716 Y144.304 E3.4970
G1 X146.016 Y143.965 E3.5196
G1 X146.306 Y143.712 E3.5388
G1 F1200 E2.5388
G0 F6000 X147.829 Y147.796
;TYPE:WALL-INNER
;WIDTH:0.400
G1 F1200 E3.5388
G1 F900 X148.686 Y146.676 E3.6092
G1 X149.803 Y145.817 E3.6795
G1 X151.104 Y145.277 E3.7497
G1 X152.500 Y145.092 E3.8200
G1 X153.896 Y145.277 E3.8902
G1 X155.197 Y145.817 E3.9605
G1 X156.314 Y146.676 E4.0308
G1 X157.171 Y147.796 E4.1012
G1 X157.711 Y149.101 E4.1716
G1 X157.900 Y150.541 E4.2441
G1 X157.900 Y159.913 E4.7117
G1 X156.587 Y159.913 E4.7772
G1 X156.505 Y159.747 E4.7864
G1 X156.718 Y159.469 E4.8039
G1 X156.858 Y159.129 E4.8222
G1 X156.905 Y158.766 E4.8405
G1 X156.858 Y158.402 E4.8588
G1 X156.717 Y158.062 E4.8772
G1 X156.495 Y157.772 E4.8954
G1 X156.203 Y157.547 E4.9138
G1 X155.863 Y157.406 E4.9321
G1 X155.500 Y157.359 E4.9504
G1 X155.183 Y157.400 E4.9663
G1 X154.806 Y157.540 E4.9864
G1 X154.505 Y157.772 E5.0054
G1 X154.283 Y158.062 E5.0236
G1 X154.142 Y158.402 E5.0420
G1 X154.095 Y158.766 E5.0603
G1 X154.142 Y159.129 E5.0785
G1 X154.287 Y159.479 E5.0974
G1 X154.503 Y159.742 E5.1144
G1 X154.423 Y159.913 E5.1238
G1 X150.587 Y159.913 E5.3152
G1 X150.505 Y159.747 E5.3244
G1 X150.718 Y159.469 E5.3419
G1 X150.858 Y159.129 E5.3603
G1 X150.905 Y158.766 E5.3785
G1 X150.864 Y158.448 E5.3945
G1 X150.724 Y158.071 E5.4146
G1 X150.495 Y157.772 E5.4334
G1 X150.203 Y157.547 E5.4518
G1 X149.863 Y157.406 E5.4701
G1 X149.500 Y157.359 E5.4884
G1 X149.183 Y157.400 E5.5043
G1 X148.806 Y157.540 E5.5244
G1 X148.505 Y157.772 E5.5434
G1 X148.283 Y158.062 E5.5616
G1 X148.142 Y158.402 E5.5799
G1 X148.095 Y158.766 E5.5982
G1 X148.142 Y159.129 E5.6165
G1 X148.287 Y159.479 E5.6354
G1 X148.503 Y159.742 E5.6524
G1 X148.423 Y159.913 E5.6618
G1 X147.100 Y159.913 E5.7278
G1 X147.100 Y150.541 E6.1954
G1 X147.289 Y149.101 E6.2678
G1 X147.829 Y147.796 E6.3383
G1 F1200 E5.3383
G0 F6000 X147.479 Y147.595
;TYPE:WALL-OUTER
;WIDTH:0.400
G1 F1200 E6.3383
G1 F900 X148.400 Y146.391 E6.4139
G1 X149.601 Y145.468 E6.4895
G1 X150.999 Y144.887 E6.5650
G1 X152.500 Y144.689 E6.6406
G1 X154.001 Y144.887 E6.7161
G1 X155.399 Y145.468 E6.7916
G1 X156.600 Y146.391 E6.8672
G1 X157.521 Y147.595 E6.9428
G1 X158.101 Y148.997 E7.0185
G1 X158.300 Y150.515 E7.0949
G1 X158.300 Y160.313 E7.5837
G1 X146.700 Y160.313 E8.1624
G1 X146.700 Y150.515 E8.6513
G1 X146.899 Y148.997 E8.7277
G1 X147.479 Y147.595 E8.8033
G1 F1200 E7.8033
G0 F6000 X149.280 Y157.791
G1 F1200 E8.8033
G1 F900 X149.002 Y157.894 E8.8181
G1 X148.791 Y158.057 E8.8314
G1 X148.632 Y158.264 E8.8445
G1 X148.532 Y158.506 E8.8575
G1 X148.498 Y158.766 E8.8706
G1 X148.532 Y159.025 E8.8836
G1 X148.634 Y159.271 E8.8969
G1 X148.821 Y159.499 E8.9116
G1 X148.999 Y159.635 E8.9228
G1 X149.244 Y159.736 E8.9360
G1 X149.538 Y159.765 E8.9508
G1 X149.760 Y159.735 E8.9620
G1 X150.001 Y159.635 E8.9750
G1 X150.209 Y159.476 E8.9880
G1 X150.368 Y159.268 E9.0011
G1 X150.468 Y159.025 E9.0142
G1 X150.502 Y158.766 E9.0272
G1 X150.473 Y158.545 E9.0384
G1 X150.370 Y158.267 E9.0531
G1 X150.209 Y158.057 E9.0663
G1 X150.001 Y157.896 E9.0795
G1 X149.759 Y157.796 E9.0925
G1 X149.500 Y157.762 E9.1056
G1 X149.280 Y157.791 E9.1166
G1 F1200 E8.1166
G0 F6000 X154.532 Y158.506
G1 F1200 E9.1166
G1 F900 X154.498 Y158.766 E9.1297
G1 X154.532 Y159.025 E9.1428
G1 X154.634 Y159.271 E9.1560
G1 X154.821 Y159.499 E9.1708
G1 X154.999 Y159.635 E9.1819
G1 X155.244 Y159.736 E9.1951
G1 X155.538 Y159.765 E9.2099
G1 X155.760 Y159.735 E9.2211
G1 X156.001 Y159.635 E9.2341
G1 X156.209 Y159.476 E9.2471
G1 X156.368 Y159.268 E9.2602
G1 X156.468 Y159.025 E9.2733
G1 X156.502 Y158.766 E9.2863
G1 X156.468 Y158.506 E9.2994
G1 X156.368 Y158.264 E9.3125
G1 X156.209 Y158.057 E9.3255
G1 X156.001 Y157.896 E9.3386
G1 X155.759 Y157.796 E9.3517
G1 X155.500 Y157.762 E9.3647
G1 X155.280 Y157.791 E9.3758
G1 X155.002 Y157.894 E9.3906
G1 X154.791 Y158.057 E9.4039
G1 X154.632 Y158.264 E9.4169
G1 X154.532 Y158.506 E9.4300
G1 F1200 E8.4300
G0 F6000 X147.349 Y158.380
;TYPE:SOLID-FILL
;WIDTH:0.400
G1 F1200 E9.4300
G1 F900 X147.180 Y158.210 E9.4419
G0 F6000 X147.180 Y157.645
G1 F900 X147.875 Y158.341 E9.4910
G0 F6000 X148.186 Y158.085
G1 F900 X147.180 Y157.079 E9.5620
G1 F1200 E8.5620
G0 F6000 X147.180 Y156.513
G1 F1200 E9.5620
G1 F900 X148.418 Y157.752 E9.6494
G0 F6000 X148.729 Y157.497
G1 F900 X147.180 Y155.948 E9.7587
G1 F1200 E8.7587
G0 F6000 X147.180 Y155.382
G1 F1200 E9.7587
G1 F900 X149.130 Y157.333 E9.8963
G1 F1200 E8.8963
G0 F6000 X149.661 Y157.298
G1 F1200 E9.8963
G1 F900 X147.180 Y154.816 E10.0714
G1 F1200 E9.0714
G0 F6000 X147.180 Y154.251
G1 F1200 E10.0714
G1 F900 X152.761 Y159.832 E10.4651
G1 F1200 E9.4651
G0 F6000 X153.326 Y159.832
G1 F1200 E10.4651
G1 F900 X147.180 Y153.685 E10.8988
G1 F1200 E9.8988
G0 F6000 X147.180 Y153.119
G1 F1200 E10.8988
G1 F900 X153.892 Y159.832 E11.3724
G0 F6000 X154.137 Y159.511
G1 F900 X147.180 Y152.554 E11.8633
G1 F1200 E10.8633
G0 F6000 X147.180 Y151.988
G1 F1200 E11.8633
G1 F900 X154.022 Y158.831 E12.3460
G1 F1200 E11.3460
G0 F6000 X154.086 Y158.328
G1 F1200 E12.3460
G1 F900 X147.180 Y151.422 E12.8333
G1 F1200 E11.8333
G0 F6000 X147.180 Y150.856
G1 F1200 E12.8333
G1 F900 X154.270 Y157.947 E13.3336
G0 F6000 X154.535 Y157.646
G1 F900 X147.209 Y150.320 E13.8505
G1 F1200 E12.8505
G0 F6000 X147.274 Y149.820
G1 F1200 E13.8505
G1 F900 X154.879 Y157.425 E14.3870
G0 F6000 X155.320 Y157.300
G1 F900 X147.339 Y149.319 E14.9501
G0 F6000 X147.465 Y148.879
G1 F900 X155.933 Y157.347 E15.5476
G1 F1200 E14.5476
G0 F6000 X157.819 Y157.537
G1 F1200 E15.5476
G1 F900 X147.993 Y147.711 E16.2409
G0 F6000 X148.239 Y147.390
G1 F900 X157.819 Y156.971 E16.9168
G1 F1200 E15.9168
G0 F6000 X157.819 Y156.405
G1 F1200 E16.9168
G1 F900 X148.483 Y147.069 E17.5755
G0 F6000 X148.729 Y146.749
G1 F900 X157.819 Y155.839 E18.2169
G1 F1200 E17.2169
G0 F6000 X157.819 Y155.274
G1 F1200 E18.2169
G1 F900 X149.046 Y146.500 E18.8359
G0 F6000 X149.365 Y146.254
G1 F900 X157.819 Y154.708 E19.4324
G1 F1200 E18.4324
G0 F6000 X157.819 Y154.142
G1 F1200 E19.4324
G1 F900 X149.686 Y146.009 E20.0062
G0 F6000 X150.045 Y145.803
G1 F900 X157.819 Y153.577 E20.5547
G1 F1200 E19.5547
G0 F6000 X157.819 Y153.011
G1 F1200 E20.5547
G1 F900 X150.445 Y145.637 E21.0750
G0 F6000 X150.845 Y145.471
G1 F900 X157.819 Y152.445 E21.5670
G1 F1200 E20.5670
G0 F6000 X157.819 Y151.880
G1 F1200 E21.5670
G1 F900 X151.274 Y145.335 E22.0288
G1 F1200 E21.0288
G0 F6000 X151.774 Y145.268
G1 F1200 E22.0288
G1 F900 X157.819 Y151.314 E22.4554
G1 F1200 E21.4554
G0 F6000 X157.819 Y150.748
G1 F1200 E22.4554
G1 F900 X152.273 Y145.202 E22.8467
G1 F1200 E21.8467
G0 F6000 X152.856 Y145.219
G1 F1200 E22.8467
G1 F900 X157.764 Y150.127 E23.1929
G1 F1200 E22.1929
G0 F6000 X157.679 Y149.476
G1 F1200 E23.1929
G1 F900 X153.509 Y145.306 E23.4872
G1 F1200 E22.4872
G0 F6000 X154.299 Y145.531
G1 F1200 E23.4872
G1 F900 X157.450 Y148.682 E23.7095
G1 F1200 E22.7095
G0 F6000 X156.875 Y147.541
G1 F1200 E23.7095
G1 F900 X155.436 Y146.103 E23.8110
G1 F1200 E22.8110
G0 F6000 X147.797 Y148.080
G1 F1200 E23.8110
G1 F900 X157.819 Y158.102 E24.5181
G0 F6000 X157.552 Y158.401
G1 F900 X147.631 Y148.479 E25.2181
G1 F1200 E24.2181
G0 F6000 X150.963 Y158.599
G1 F1200 E25.2181
G1 F900 X152.195 Y159.832 E25.3051
G1 F1200 E24.3051
G0 F6000 X151.629 Y159.832
G1 F1200 E25.3051
G1 F900 X150.936 Y159.139 E25.3539
G1 F1200 E24.3539
G0 F6000 X150.919 Y159.687
G1 F1200 E25.3539
G1 F900 X150.711 Y159.762 E25.3642
G1 X150.095 Y159.712 E25.3703
G1 X149.989 Y160.172 E25.3951
G1 X149.285 Y160.033 E25.4147
G1 X148.635 Y159.666 E25.4520
G1 F1200 E24.4520
G0 F6000 X154.572 Y159.946
;TYPE:SOLID-FILL
;WIDTH:0.400
G1 F1200 E25.4520
G1 F900 X154.879 Y159.971 E25.4679
G1 X155.506 Y160.031 E25.4962
G1 X156.002 Y159.962 E25.5160
G1 X156.495 Y160.172 E25.5427
G1 F1200 E24.5427
G0 F6000 X157.226 Y159.772
G1 F1200 E25.5427
G1 F900 X156.885 Y159.430 E25.5668
G0 F6000 X157.016 Y158.996
G1 F900 X157.759 Y159.739 E25.6192
G1 F1200 E24.6192
G0 F6000 X157.759 Y159.173
G1 F1200 E25.6192
G1 F900 X157.001 Y158.415 E25.6727
G1 F1200 E24.6727
G0 F6000 X157.570 Y158.418
G1 F1200 E25.6727
G1 F900 X157.759 Y158.608 E25.6861
G1 F1200 E24.6861
G0 F6000 X147.986 Y159.017
G1 F1200 E25.6861
G1 F900 X147.376 Y158.407 E25.7291
G0 F6000 X147.239 Y158.835
G1 F900 X148.175 Y159.772 E25.7952
G1 F1200 E24.7952
G0 F6000 X147.609 Y159.772
G1 F1200 E25.7952
G1 F900 X147.239 Y159.401 E25.8213
;LAYER:1
;Z:0.500
;HEIGHT:0.200
M106 S255
G1 F1200 E24.8213
G0 F1500 Z0.500
G0 F6000 X148.282 Y159.469
;TYPE:WALL-INNER
;WIDTH:0.400
G1 F1200 E25.8213
G1 F1275 X148.495 Y159.747 E25.8330
G1 X148.413 Y159.913 E25.8391
G1 X147.100 Y159.913 E25.8828
G1 X147.100 Y150.541 E26.1945
G1 X147.289 Y149.101 E26.2428
G1 X147.829 Y147.796 E26.2898
G1 X148.686 Y146.676 E26.3367
G1 X149.803 Y145.817 E26.3836
G1 X151.104 Y145.277 E26.4304
G1 X152.500 Y145.092 E26.4773
G1 X153.896 Y145.277 E26.5241
G1 X155.197 Y145.817 E26.5710
G1 X156.314 Y146.676 E26.6178
G1 X157.171 Y147.796 E26.6647
G1 X157.711 Y149.101 E26.7117
G1 X157.900 Y150.541 E26.7600
G1 X157.900 Y159.913 E27.0717
G1 X156.587 Y159.913 E27.1154
G1 X156.505 Y159.747 E27.1215
G1 X156.718 Y159.469 E27.1332
G1 X156.858 Y159.129 E27.1454
G1 X156.905 Y158.766 E27.1576
G1 X156.858 Y158.402 E27.1698
G1 X156.717 Y158.062 E27.1820
G1 X156.495 Y157.772 E27.1942
G1 X156.203 Y157.547 E27.2065
G1 X155.863 Y157.406 E27.2187
G1 X155.500 Y157.359 E27.2309
G1 X155.137 Y157.406 E27.2430
G1 X154.797 Y157.547 E27.2553
G1 X154.505 Y157.772 E27.2676
G1 X154.283 Y158.062 E27.2797
G1 X154.142 Y158.402 E27.2919
G1 X154.095 Y158.766 E27.3041
G1 X154.142 Y159.129 E27.3163
G1 X154.282 Y159.469 E27.3286
G1 X154.495 Y159.747 E27.3402
G1 X154.413 Y159.913 E27.3464
G1 X150.587 Y159.913 E27.4736
G1 X150.505 Y159.747 E27.4798
G1 X150.718 Y159.469 E27.4914
G1 X150.858 Y159.129 E27.5036
G1 X150.905 Y158.766 E27.5158
G1 X150.858 Y158.402 E27.5280
G1 X150.717 Y158.062 E27.5403
G1 X150.495 Y157.772 E27.5524
G1 X150.203 Y157.547 E27.5647
G1 X149.863 Y157.406 E27.5769
G1 X149.500 Y157.359 E27.5891
G1 X149.137 Y157.406 E27.6013
G1 X148.797 Y157.547 E27.6135
G1 X148.505 Y157.772 E27.6258
G1 X148.283 Y158.062 E27.6379
G1 X148.142 Y158.402 E27.6502
G1 X148.095 Y158.766 E27.6624
G1 X148.142 Y159.129 E27.6745
G1 X148.282 Y159.469 E27.6868
G1 F1200 E26.6868
G0 F6000 X146.700 Y160.313
;TYPE:WALL-OUTER
;WIDTH:0.400
G1 F1200 E27.6868
G1 F1050 X146.700 Y150.515 E28.0127
G1 X146.899 Y148.997 E28.0636
G1 X147.479 Y147.595 E28.1140
G1 X148.400 Y146.391 E28.1645
G1 X149.601 Y145.468 E28.2148
G1 X150.999 Y144.887 E28.2652
G1 X152.500 Y144.689 E28.3155
G1 X154.001 Y144.887 E28.3659
G1 X155.399 Y145.468 E28.4163
G1 X156.600 Y146.391 E28.4666
G1 X157.521 Y147.595 E28.5171
G1 X158.101 Y148.997 E28.5675
G1 X158.300 Y150.515 E28.6184
G1 X158.300 Y160.313 E28.9443
G1 X146.700 Y160.313 E29.3301
G1 F1200 E28.3301
G0 F6000 X148.532 Y159.025
G1 F1200 E29.3301
G1 F1050 X148.632 Y159.268 E29.3389
G1 X148.791 Y159.476 E29.3476
G1 X148.999 Y159.635 E29.3563
G1 X149.240 Y159.735 E29.3650
G1 X149.500 Y159.770 E29.3737
G1 X149.760 Y159.735 E29.3824
G1 X150.001 Y159.635 E29.3911
G1 X150.209 Y159.476 E29.3998
G1 X150.368 Y159.268 E29.4085
G1 X150.468 Y159.025 E29.4173
G1 X150.502 Y158.766 E29.4259
G1 X150.468 Y158.506 E29.4347
G1 X150.368 Y158.264 E29.4434
G1 X150.209 Y158.057 E29.4521
G1 X150.001 Y157.896 E29.4608
G1 X149.759 Y157.796 E29.4695
G1 X149.500 Y157.762 E29.4782
G1 X149.241 Y157.796 E29.4869
G1 X148.999 Y157.896 E29.4956
G1 X148.791 Y158.057 E29.5043
G1 X148.632 Y158.264 E29.5130
G1 X148.532 Y158.506 E29.5217
G1 X148.498 Y158.766 E29.5305
G1 X148.532 Y159.025 E29.5391
G1 F1200 E28.5391
G0 F6000 X154.532 Y159.025
G1 F1200 E29.5391
G1 F1050 X154.632 Y159.268 E29.5479
G1 X154.791 Y159.476 E29.5566
G1 X154.999 Y159.635 E29.5653
G1 X155.240 Y159.735 E29.5740
G1 X155.500 Y159.770 E29.5827
G1 X155.760 Y159.735 E29.5914
G1 X156.001 Y159.635 E29.6001
G1 X156.209 Y159.476 E29.6088
G1 X156.368 Y159.268 E29.6175
G1 X156.468 Y159.025 E29.6263
G1 X156.502 Y158.766 E29.6350
G1 X156.468 Y158.506 E29.6437
G1 X156.368 Y158.264 E29.6524
G1 X156.209 Y158.057 E29.6611
G1 X156.001 Y157.896 E29.6698
G1 X155.759 Y157.796 E29.6785
G1 X155.500 Y157.762 E29.6872
G1 X155.241 Y157.796 E29.6959
G1 X154.999 Y157.896 E29.7046
G1 X154.791 Y158.057 E29.7134
G1 X154.632 Y158.264 E29.7220
G1 X154.532 Y158.506 E29.7307
G1 X154.498 Y158.766 E29.7395
G1 X154.532 Y159.025 E29.7482
G1 F1200 E28.7482
G0 F6000 X157.528 Y158.406
;TYPE:SOLID-FILL
;WIDTH:0.400
G1 F1200 E29.7482
G1 F1575 X157.819 Y158.116 E29.7618
G0 F6000 X157.819 Y157.550
G1 F1575 X157.066 Y158.303 E29.7972
G0 F6000 X156.785 Y158.018
G1 F1575 X157.819 Y156.984 E29.8459
G0 F6000 X157.819 Y156.419
G1 F1575 X156.535 Y157.702 E29.9062
G0 F6000 X156.209 Y157.462
G1 F1575 X157.819 Y155.853 E29.9820
G0 F6000 X157.819 Y155.287
G1 F1575 X155.791 Y157.315 E30.0773
G0 F6000 X155.228 Y157.312
G1 F1575 X157.819 Y154.722 E30.1992
G0 F6000 X157.819 Y154.156
G1 F1575 X152.143 Y159.832 E30.4662
G0 F6000 X152.708 Y159.832
G1 F1575 X154.048 Y158.492 E30.5292
G0 F6000 X154.051 Y159.055
G1 F1575 X153.274 Y159.832 E30.5658
G0 F6000 X153.840 Y159.832
G1 F1575 X154.051 Y159.620 E30.5757
G0 F6000 X151.577 Y159.832
G1 F1575 X157.819 Y153.590 E30.8693
G0 F6000 X157.819 Y153.024
G1 F1575 X151.011 Y159.832 E31.1895
G0 F6000 X150.804 Y159.473
G1 F1575 X157.819 Y152.459 E31.5195
G0 F6000 X157.819 Y151.893
G1 F1575 X150.981 Y158.731 E31.8411
G0 F6000 X150.885 Y158.261
G1 F1575 X157.819 Y151.327 E32.1673
G0 F6000 X157.819 Y150.762
G1 F1575 X150.689 Y157.891 E32.5026
G0 F6000 X150.409 Y157.606
G1 F1575 X157.778 Y150.237 E32.8492
G0 F6000 X157.712 Y149.737
G1 F1575 X150.052 Y157.397 E33.2095
